;FLAVOR:RepRap
;TIME:4536
;Filament used: 2.37251m
;Layer height: 0.16
;Generated with Cura_SteamEngine 4.0.0
T0
M190 S55
M104 S215
M109 S215
M82 ;absolute extrusion mode
G28 ;Home
G1 Z15.0 F6000 ;Move the platform down 15mm
;Prime the extruder
G92 E0
G1 F200 E3
G92 E0
M83 ;relative extrusion mode
G1 F1500 E-2
;LAYER_COUNT:175
;LAYER:0
M107
G0 F1950 X82.266 Y84.419 Z0.2
;TYPE:SKIRT
G1 F1500 E2
G1 F1350 X82.834 Y83.918 E0.01889
G1 X83.27 Y83.587 E0.01366
G1 X83.523 Y83.436 E0.00735
G1 X84.082 Y83.132 E0.01587
G1 X84.688 Y82.868 E0.01649
G1 X85.228 Y82.688 E0.0142
G1 X85.759 Y82.554 E0.01366
G1 X86.225 Y82.501 E0.0117
G1 X87.871 Y82.418 E0.04111
G1 X88.323 Y82.422 E0.01128
G1 X96.038 Y82.964 E0.19293
G1 X101.493 Y83.035 E0.13609
G1 X106.922 Y82.798 E0.13556
G1 X110.901 Y82.438 E0.09966
G1 X111.347 Y82.425 E0.01113
G1 X113.667 Y82.492 E0.0579
G1 X114.212 Y82.547 E0.01366
G1 X114.578 Y82.631 E0.00937
G1 X114.911 Y82.725 E0.00863
G1 X115.665 Y83.029 E0.02028
G1 X116.625 Y83.544 E0.02718
G1 X117.087 Y83.838 E0.01366
G1 X117.365 Y84.065 E0.00895
G1 X117.653 Y84.325 E0.00968
G1 X118.031 Y84.721 E0.01366
G1 X118.352 Y85.174 E0.01385
G1 X119.122 Y86.452 E0.03722
G1 X119.37 Y86.94 E0.01365
G1 X119.581 Y87.623 E0.01783
G1 X119.709 Y88.238 E0.01567
G1 X119.788 Y88.999 E0.01909
G1 X119.805 Y113.829 E0.61939
G1 X119.765 Y114.375 E0.01366
G1 X119.647 Y114.91 E0.01367
G1 X119.452 Y115.421 E0.01364
G1 X119.184 Y115.899 E0.01367
G1 X118.85 Y116.332 E0.01364
G1 X118.456 Y116.712 E0.01365
G1 X118.011 Y117.031 E0.01366
G1 X117.525 Y117.282 E0.01364
G1 X117.007 Y117.459 E0.01366
G1 X116.469 Y117.559 E0.01365
G1 X116.055 Y117.582 E0.01034
G1 X83.944 Y117.583 E0.80101
G1 X83.398 Y117.543 E0.01366
G1 X82.864 Y117.424 E0.01365
G1 X82.353 Y117.229 E0.01364
G1 X81.875 Y116.961 E0.01367
G1 X81.442 Y116.626 E0.01366
G1 X81.062 Y116.232 E0.01365
G1 X80.743 Y115.787 E0.01366
G1 X80.493 Y115.301 E0.01363
G1 X80.316 Y114.783 E0.01366
G1 X80.217 Y114.244 E0.01367
G1 X80.194 Y113.834 E0.01024
G1 X80.186 Y89.929 E0.59631
G1 X80.19 Y89.745 E0.00459
G1 X80.244 Y88.638 E0.02765
G1 X80.311 Y88.095 E0.01365
G1 X80.392 Y87.764 E0.0085
G1 X80.607 Y87.032 E0.01903
G1 X80.799 Y86.52 E0.01364
G1 X81.035 Y86.086 E0.01232
G1 X81.577 Y85.228 E0.02532
G1 X81.902 Y84.788 E0.01365
G1 X82.266 Y84.419 E0.01293
G0 F1950 X82.465 Y84.644
G1 F1350 X83.033 Y84.143 E0.01889
G1 X83.667 Y83.699 E0.01931
G1 X84.226 Y83.395 E0.01587
G1 X84.783 Y83.153 E0.01515
G1 X85.323 Y82.973 E0.0142
G1 X85.832 Y82.845 E0.01309
G1 X86.24 Y82.8 E0.01024
G1 X87.886 Y82.717 E0.04111
G1 X88.302 Y82.721 E0.01038
G1 X96.03 Y83.264 E0.19325
G1 X101.485 Y83.335 E0.13609
G1 X106.962 Y83.096 E0.13675
G1 X110.928 Y82.737 E0.09934
G1 X111.339 Y82.724 E0.01026
G1 X113.659 Y82.791 E0.0579
G1 X114.181 Y82.846 E0.01309
G1 X114.496 Y82.92 E0.00807
G1 X114.829 Y83.014 E0.00863
G1 X115.523 Y83.294 E0.01867
G1 X116.483 Y83.809 E0.02718
G1 X116.925 Y84.091 E0.01308
G1 X117.164 Y84.288 E0.00773
G1 X117.452 Y84.548 E0.00968
G1 X117.814 Y84.929 E0.01311
G1 X118.095 Y85.329 E0.01219
G1 X118.865 Y86.607 E0.03722
G1 X119.101 Y87.076 E0.0131
G1 X119.288 Y87.684 E0.01587
G1 X119.416 Y88.299 E0.01567
G1 X119.488 Y89 E0.01758
G1 X119.505 Y113.83 E0.61939
G1 X119.465 Y114.353 E0.01308
G1 X119.347 Y114.865 E0.01311
G1 X119.152 Y115.352 E0.01309
G1 X118.886 Y115.804 E0.01308
G1 X118.554 Y116.211 E0.0131
G1 X118.164 Y116.563 E0.01311
G1 X117.725 Y116.851 E0.0131
G1 X117.248 Y117.069 E0.01308
G1 X116.743 Y117.213 E0.0131
G1 X116.055 Y117.282 E0.01725
G1 X83.944 Y117.283 E0.80101
G1 X83.421 Y117.243 E0.01308
G1 X82.909 Y117.124 E0.01311
G1 X82.422 Y116.929 E0.01309
G1 X81.97 Y116.662 E0.0131
G1 X81.563 Y116.33 E0.0131
G1 X81.212 Y115.94 E0.01309
G1 X80.924 Y115.501 E0.0131
G1 X80.706 Y115.023 E0.01311
G1 X80.563 Y114.518 E0.01309
G1 X80.494 Y113.834 E0.01715
G1 X80.486 Y89.929 E0.59631
G1 X80.49 Y89.76 E0.00422
G1 X80.544 Y88.653 E0.02765
G1 X80.609 Y88.132 E0.0131
G1 X80.68 Y87.849 E0.00728
G1 X80.895 Y87.117 E0.01903
G1 X81.081 Y86.626 E0.0131
G1 X81.288 Y86.246 E0.01079
G1 X81.83 Y85.388 E0.02532
G1 X82.144 Y84.967 E0.0131
G1 X82.465 Y84.644 E0.01136
G0 F1950 X82.663 Y84.869
G1 F1350 X83.231 Y84.368 E0.01889
G1 X83.81 Y83.963 E0.01763
G1 X84.369 Y83.659 E0.01587
G1 X84.878 Y83.438 E0.01384
G1 X85.418 Y83.258 E0.0142
G1 X85.905 Y83.137 E0.01252
G1 X86.255 Y83.1 E0.00878
G1 X87.901 Y83.017 E0.04111
G1 X88.281 Y83.021 E0.00948
G1 X96.005 Y83.564 E0.19315
G1 X101.494 Y83.635 E0.13694
G1 X106.981 Y83.396 E0.137
G1 X110.955 Y83.036 E0.09954
G1 X111.33 Y83.024 E0.00936
G1 X113.65 Y83.091 E0.0579
G1 X114.149 Y83.146 E0.01252
G1 X114.415 Y83.208 E0.00681
G1 X114.748 Y83.302 E0.00863
G1 X115.381 Y83.558 E0.01703
G1 X116.341 Y84.073 E0.02718
G1 X116.763 Y84.345 E0.01252
G1 X116.963 Y84.511 E0.00648
G1 X117.251 Y84.771 E0.00968
G1 X117.595 Y85.136 E0.01251
G1 X117.838 Y85.483 E0.01057
G1 X118.608 Y86.761 E0.03722
G1 X118.832 Y87.21 E0.01252
G1 X118.994 Y87.745 E0.01394
G1 X119.122 Y88.36 E0.01567
G1 X119.188 Y89 E0.01605
G1 X119.205 Y113.83 E0.61939
G1 X119.165 Y114.33 E0.01251
G1 X119.047 Y114.817 E0.0125
G1 X118.853 Y115.28 E0.01252
G1 X118.587 Y115.705 E0.01251
G1 X118.258 Y116.084 E0.01252
G1 X117.873 Y116.405 E0.0125
G1 X117.441 Y116.661 E0.01253
G1 X116.975 Y116.845 E0.0125
G1 X116.485 Y116.953 E0.01252
G1 X116.055 Y116.982 E0.01075
G1 X83.944 Y116.983 E0.80101
G1 X83.444 Y116.943 E0.01251
G1 X82.957 Y116.824 E0.01251
G1 X82.494 Y116.63 E0.01252
G1 X82.069 Y116.364 E0.01251
G1 X81.691 Y116.034 E0.01252
G1 X81.37 Y115.649 E0.0125
G1 X81.114 Y115.217 E0.01253
G1 X80.931 Y114.751 E0.01249
G1 X80.823 Y114.261 E0.01252
G1 X80.794 Y113.834 E0.01068
G1 X80.786 Y89.929 E0.59631
G1 X80.79 Y89.775 E0.00384
G1 X80.844 Y88.668 E0.02765
G1 X80.968 Y87.933 E0.01859
G1 X81.183 Y87.201 E0.01903
G1 X81.362 Y86.733 E0.0125
G1 X81.542 Y86.407 E0.00929
G1 X82.084 Y85.549 E0.02532
G1 X82.385 Y85.147 E0.01253
G1 X82.663 Y84.869 E0.00981
G1 F1500 E-2
;MESH:Magnet Clipsmall.STL
G0 F1950 X89.379 Y85.651
G0 X89.981 Y85.953
G0 X89.514 Y86.986
G0 X85.348 Y90.989
G0 X85.088 Y91.505
G0 X84.984 Y92.021
G0 X85.048 Y106.69
G0 X85.261 Y107.276
G0 X85.609 Y107.662
G0 X86.198 Y107.944
G0 X113.708 Y107.964
G0 X114.336 Y107.704
G0 X114.697 Y107.339
G0 X114.94 Y106.768
G0 X115.311 Y91.852
;TYPE:WALL-INNER
G1 F1500 E2
G1 F1350 X115.076 Y91.188 E0.01757
G1 X115.017 Y91.083 E0.003
G1 X114.922 Y90.915 E0.00481
G1 X114.75 Y90.701 E0.00685
G1 X114.591 Y90.552 E0.00544
G1 X114.348 Y90.38 E0.00743
G1 X114.079 Y90.255 E0.0074
G1 X113.885 Y90.196 E0.00506
G1 X111.092 Y89.697 E0.07077
G1 X110.986 Y89.661 E0.00279
G1 X110.896 Y89.616 E0.00251
G1 X110.781 Y89.54 E0.00344
G1 X110.723 Y89.491 E0.00189
G1 X110.606 Y89.351 E0.00455
G1 X110.552 Y89.255 E0.00275
G1 X110.513 Y89.158 E0.00261
G1 X110.48 Y89.027 E0.00337
G1 X110.466 Y88.882 E0.00363
G1 X110.466 Y87.728 E0.02879
G1 X110.48 Y87.603 E0.00314
G1 X110.513 Y87.476 E0.00327
G1 X110.556 Y87.372 E0.00281
G1 X110.617 Y87.268 E0.00301
G1 X110.732 Y87.133 E0.00442
G1 X110.798 Y87.078 E0.00214
G1 X110.896 Y87.014 E0.00292
G1 X111 Y86.967 E0.00285
G1 X111.13 Y86.928 E0.00339
G1 X111.232 Y86.912 E0.00258
G1 X113.042 Y86.914 E0.04515
G1 X113.212 Y86.931 E0.00426
G1 X113.382 Y86.959 E0.0043
G1 X113.708 Y87.051 E0.00845
G1 X113.891 Y87.124 E0.00491
G1 X114.033 Y87.195 E0.00396
G1 X114.203 Y87.295 E0.00492
G1 X114.36 Y87.405 E0.00478
G1 X114.505 Y87.524 E0.00468
G1 X114.655 Y87.669 E0.0052
G1 X114.775 Y87.807 E0.00456
G1 X114.883 Y87.953 E0.00453
G1 X114.998 Y88.135 E0.00537
G1 X115.081 Y88.293 E0.00445
G1 X115.147 Y88.446 E0.00416
G1 X115.221 Y88.663 E0.00572
G1 X115.268 Y88.857 E0.00498
G1 X115.293 Y89.009 E0.00384
G1 X115.311 Y89.202 E0.00484
G1 X115.311 Y91.067 E0.04652
G1 X115.311 Y91.188 E0.00271
G1 X115.311 Y91.852 E0.00636
G0 F1950 X115.311 Y91.978
G1 F1350 X115.311 Y92.035 E0.00142
G1 X115.311 Y106.617 E0.36375
G1 X115.311 Y106.83 E0.00531
G1 X115.312 Y107.033 E0.00506
G1 X115.313 Y107.231 E0.00494
G1 X115.313 Y107.318 E0.00217
G1 X115.315 Y112.943 E0.14032
G1 X115.315 Y113.092 E0.00372
G1 X115.166 Y113.092 E0.00241
G1 X84.685 Y113.092 E0.76035
G1 X84.685 Y107.316 E0.14408
G1 X84.685 Y107.147 E0.00422
G1 X84.685 Y106.934 E0.00531
G1 X84.685 Y106.729 E0.00511
G1 X84.685 Y106.568 E0.00402
G1 X84.685 Y92.211 E0.35814
G1 X84.686 Y92.162 E0.00122
G1 X84.774 Y92.211 E0.00111
G1 X84.773 Y106.568 E0.106
G1 X84.79 Y106.729 E0.0013
G1 X84.831 Y106.934 E0.00223
G1 X84.903 Y107.147 E0.00349
G1 X84.979 Y107.298 E0.00366
G1 X85.037 Y107.412 E0.00319
G1 X85.223 Y107.66 E0.00773
G1 X85.447 Y107.868 E0.00763
G1 X85.696 Y108.032 E0.00744
G1 X85.964 Y108.147 E0.00727
G1 X86.144 Y108.198 E0.00467
G1 X86.351 Y108.233 E0.00524
G1 X86.687 Y108.242 E0.00838
G1 X113.395 Y108.242 E0.66623
G1 X113.75 Y108.223 E0.00887
G1 X114.063 Y108.138 E0.00809
G1 X114.237 Y108.065 E0.00471
G1 X114.488 Y107.917 E0.00727
G1 X114.724 Y107.716 E0.00773
G1 X114.912 Y107.488 E0.00737
G1 X115.018 Y107.307 E0.00523
G1 X115.061 Y107.232 E0.00199
G1 X115.138 Y107.034 E0.00385
G1 X115.193 Y106.831 E0.00291
G1 X115.224 Y106.617 E0.00202
G1 X115.222 Y92.035 E0.10706
G1 X115.311 Y91.978 E0.0011
G0 F1950 X114.985 Y91.83
G1 F1350 X114.802 Y91.313 E0.01368
G1 X114.673 Y91.084 E0.00656
G1 X114.529 Y90.905 E0.00573
G1 X114.401 Y90.785 E0.00438
G1 X114.197 Y90.641 E0.00623
G1 X113.971 Y90.536 E0.00622
G1 X113.814 Y90.488 E0.0041
G1 X111.019 Y89.988 E0.07083
G1 X110.867 Y89.937 E0.004
G1 X110.75 Y89.879 E0.00326
G1 X110.597 Y89.778 E0.00457
G1 X110.514 Y89.707 E0.00272
G1 X110.433 Y89.619 E0.00298
G1 X110.356 Y89.517 E0.00319
G1 X110.281 Y89.386 E0.00377
G1 X110.226 Y89.249 E0.00368
G1 X110.184 Y89.082 E0.0043
G1 X110.166 Y88.902 E0.00451
G1 X110.166 Y87.712 E0.02968
G1 X110.185 Y87.544 E0.00422
G1 X110.227 Y87.381 E0.0042
G1 X110.286 Y87.237 E0.00388
G1 X110.367 Y87.101 E0.00395
G1 X110.447 Y86.997 E0.00327
G1 X110.53 Y86.911 E0.00298
G1 X110.616 Y86.839 E0.0028
G1 X110.748 Y86.753 E0.00393
G1 X110.77 Y86.743 E0.0006
G1 X110.9 Y86.683 E0.00357
G1 X111.059 Y86.636 E0.00414
G1 X111.082 Y86.633 E0.00058
G1 X111.184 Y86.617 E0.00258
G1 X111.21 Y86.612 E0.00066
G1 X113.061 Y86.614 E0.04617
G1 X113.245 Y86.632 E0.00461
G1 X113.439 Y86.664 E0.0049
G1 X113.606 Y86.705 E0.00429
G1 X113.806 Y86.767 E0.00522
G1 X114.011 Y86.849 E0.00551
G1 X114.175 Y86.93 E0.00456
G1 X114.366 Y87.043 E0.00554
G1 X114.542 Y87.167 E0.00537
G1 X114.703 Y87.298 E0.00518
G1 X114.873 Y87.463 E0.00591
G1 X115.012 Y87.623 E0.00529
G1 X115.131 Y87.783 E0.00497
G1 X115.252 Y87.975 E0.00566
G1 X115.351 Y88.162 E0.00528
G1 X115.428 Y88.34 E0.00484
G1 X115.504 Y88.568 E0.006
G1 X115.513 Y88.592 E0.00064
G1 X115.56 Y88.786 E0.00498
G1 X115.592 Y88.978 E0.00486
G1 X115.611 Y89.186 E0.00521
G1 X115.615 Y113.243 E0.6001
G1 X115.615 Y113.392 E0.00372
G1 X115.466 Y113.392 E0.00241
G1 X84.534 Y113.392 E0.7716
G1 X84.385 Y113.392 E0.00372
G1 X84.385 Y113.243 E0.00241
G1 X84.386 Y89.223 E0.59918
G1 X84.398 Y89.057 E0.00415
G1 X84.43 Y88.839 E0.0055
G1 X84.478 Y88.63 E0.00535
G1 X84.54 Y88.429 E0.00525
G1 X84.634 Y88.196 E0.00627
G1 X84.724 Y88.018 E0.00498
G1 X84.833 Y87.838 E0.00525
G1 X84.953 Y87.669 E0.00517
G1 X85.088 Y87.507 E0.00526
G1 X85.245 Y87.347 E0.00559
G1 X85.433 Y87.185 E0.00619
G1 X85.589 Y87.072 E0.00481
G1 X85.772 Y86.96 E0.00535
G1 X85.95 Y86.868 E0.005
G1 X86.162 Y86.779 E0.00574
G1 X86.333 Y86.722 E0.0045
G1 X86.493 Y86.681 E0.00412
G1 X86.51 Y86.676 E0.00044
G1 X86.718 Y86.637 E0.00528
G1 X86.888 Y86.618 E0.00427
G1 X87.127 Y86.608 E0.00597
G1 X88.741 Y86.61 E0.04026
G1 X88.914 Y86.63 E0.00434
G1 X89.046 Y86.664 E0.0034
G1 X89.216 Y86.735 E0.0046
G1 X89.36 Y86.821 E0.00418
G1 X89.447 Y86.891 E0.00279
G1 X89.53 Y86.973 E0.00291
G1 X89.632 Y87.099 E0.00404
G1 X89.692 Y87.197 E0.00287
G1 X89.765 Y87.358 E0.00441
G1 X89.805 Y87.494 E0.00354
G1 X89.828 Y87.657 E0.00411
G1 X89.832 Y87.678 E0.00053
G1 X89.832 Y88.954 E0.03183
G1 X89.808 Y89.132 E0.00448
G1 X89.768 Y89.271 E0.00361
G1 X89.696 Y89.429 E0.00433
G1 X89.622 Y89.547 E0.00347
G1 X89.537 Y89.654 E0.00341
G1 X89.46 Y89.731 E0.00272
G1 X89.348 Y89.819 E0.00355
G1 X89.229 Y89.892 E0.00348
G1 X89.085 Y89.956 E0.00393
G1 X88.919 Y90.003 E0.0043
G1 X86.231 Y90.478 E0.06809
G1 X85.978 Y90.555 E0.0066
G1 X85.759 Y90.67 E0.00617
G1 X85.561 Y90.818 E0.00617
G1 X85.486 Y90.889 E0.00258
G1 X85.381 Y91.011 E0.00402
G1 X85.289 Y91.143 E0.00401
G1 X85.173 Y91.375 E0.00647
G1 X85.124 Y91.523 E0.00389
G1 X85.02 Y92.005 E0.0123
G1 X85.074 Y92.035 E0.00154
G1 X85.073 Y106.552 E0.36213
G1 X85.087 Y106.684 E0.00331
G1 X85.121 Y106.856 E0.00437
G1 X85.18 Y107.03 E0.00458
G1 X85.293 Y107.253 E0.00624
G1 X85.447 Y107.458 E0.0064
G1 X85.633 Y107.631 E0.00634
G1 X85.839 Y107.767 E0.00616
G1 X86.064 Y107.864 E0.00611
G1 X86.21 Y107.905 E0.00378
G1 X86.38 Y107.934 E0.0043
G1 X86.691 Y107.942 E0.00776
G1 X113.387 Y107.942 E0.66593
G1 X113.702 Y107.925 E0.00787
G1 X113.965 Y107.854 E0.0068
G1 X114.102 Y107.796 E0.00371
G1 X114.313 Y107.672 E0.00611
G1 X114.509 Y107.505 E0.00642
G1 X114.665 Y107.316 E0.00611
G1 X114.79 Y107.101 E0.0062
G1 X114.853 Y106.94 E0.00431
G1 X114.899 Y106.77 E0.00439
G1 X114.924 Y106.596 E0.00439
G1 X114.922 Y91.87 E0.36734
G1 X114.985 Y91.83 E0.00186
G0 F1950 X115.023 Y91.831
G0 X114.94 Y106.768
G0 X114.697 Y107.339
G0 X114.336 Y107.704
G0 X113.708 Y107.964
G0 X86.198 Y107.944
G0 X85.609 Y107.662
G0 X85.261 Y107.276
G0 X85.048 Y106.69
G0 X84.984 Y92.021
G0 X85.136 Y91.362
G0 X85.461 Y90.859
G0 X85.866 Y90.584
G0 X89.532 Y88.936
G1 F1350 X89.514 Y89.07 E0.00337
G1 X89.486 Y89.166 E0.00249
G1 X89.431 Y89.288 E0.00334
G1 X89.381 Y89.368 E0.00235
G1 X89.31 Y89.457 E0.00284
G1 X89.261 Y89.506 E0.00173
G1 X89.179 Y89.57 E0.00259
G1 X89.086 Y89.627 E0.00272
G1 X88.986 Y89.672 E0.00274
G1 X88.844 Y89.712 E0.00368
G1 X86.161 Y90.186 E0.06796
G1 X85.864 Y90.276 E0.00774
G1 X85.598 Y90.415 E0.00749
G1 X85.367 Y90.588 E0.0072
G1 X85.269 Y90.682 E0.00339
G1 X85.144 Y90.827 E0.00478
G1 X85.03 Y90.989 E0.00494
G1 X84.98 Y91.089 E0.00279
G1 X84.895 Y91.26 E0.00476
G1 X84.834 Y91.444 E0.00484
G1 X84.686 Y92.132 E0.01755
G1 X84.686 Y91.444 E0.00418
G1 X84.686 Y91.26 E0.00272
G1 X84.686 Y91.069 E0.00407
G1 X84.686 Y89.231 E0.04585
G1 X84.695 Y89.101 E0.00325
G1 X84.727 Y88.883 E0.0055
G1 X84.765 Y88.718 E0.00422
G1 X84.825 Y88.524 E0.00507
G1 X84.906 Y88.324 E0.00538
G1 X84.986 Y88.164 E0.00446
G1 X85.078 Y88.012 E0.00443
G1 X85.198 Y87.843 E0.00517
G1 X85.309 Y87.71 E0.00432
G1 X85.45 Y87.567 E0.00501
G1 X85.618 Y87.421 E0.00555
G1 X85.757 Y87.321 E0.00427
G1 X85.917 Y87.224 E0.00467
G1 X86.08 Y87.139 E0.00459
G1 X86.266 Y87.061 E0.00503
G1 X86.428 Y87.007 E0.00426
G1 X86.568 Y86.97 E0.00361
G1 X86.766 Y86.933 E0.00502
G1 X86.904 Y86.918 E0.00346
G1 X87.14 Y86.908 E0.00589
G1 X88.724 Y86.91 E0.03951
G1 X88.855 Y86.925 E0.00329
G1 X88.951 Y86.95 E0.00247
G1 X89.079 Y87.003 E0.00346
G1 X89.19 Y87.069 E0.00322
G1 X89.306 Y87.173 E0.00389
G1 X89.385 Y87.271 E0.00314
G1 X89.428 Y87.341 E0.00205
G1 X89.482 Y87.46 E0.00326
G1 X89.511 Y87.557 E0.00253
G1 X89.532 Y87.699 E0.00358
G1 X89.532 Y88.936 E0.03086
G0 F1950 X85.529 Y90.781
G0 X85.128 Y91.357
G0 X85.29 Y91.907
G0 X85.038 Y106.691
G0 X85.252 Y107.278
G0 X85.816 Y107.81
G0 X86.375 Y107.983
G0 X113.709 Y107.973
G0 X114.341 Y107.711
G0 X114.834 Y107.122
G0 X114.959 Y106.701
G0 X114.777 Y91.758
G0 X114.683 Y91.725
;TYPE:WALL-OUTER
G1 F1350 X114.574 Y91.417 E0.00815
G1 X114.466 Y91.225 E0.0055
G1 X114.345 Y91.076 E0.00479
G1 X114.242 Y90.979 E0.00353
G1 X114.071 Y90.858 E0.00523
G1 X113.881 Y90.77 E0.00522
G1 X113.755 Y90.731 E0.00329
G1 X110.958 Y90.231 E0.07088
G1 X110.77 Y90.168 E0.00495
G1 X110.622 Y90.095 E0.00412
G1 X110.454 Y89.984 E0.00502
G1 X110.34 Y89.887 E0.00373
G1 X110.239 Y89.778 E0.00371
G1 X110.147 Y89.655 E0.00383
G1 X110.054 Y89.493 E0.00466
G1 X109.989 Y89.332 E0.00433
G1 X109.936 Y89.121 E0.00543
G1 X109.916 Y88.916 E0.00514
G1 X109.916 Y87.703 E0.03026
G1 X109.939 Y87.494 E0.00525
G1 X109.989 Y87.303 E0.00493
G1 X110.062 Y87.126 E0.00478
G1 X110.159 Y86.962 E0.00475
G1 X110.258 Y86.833 E0.00406
