;FLAVOR:Marlin
;TIME:14983
;Filament used: 18.1416m
;Layer height: 0.3
;Generated with Cura_SteamEngine 4.0.0
M140 S100
M105
M190 S100
M104 S245
M105
M109 S245
M82 ;absolute extrusion mode
G28 ;Home

G29 ; auto level

G1 Z15.0 F6000 ;Move the platform down 15mm

M25 ; Pause and wait for instruction

G92 E0
G1 F200 E3
G92 E0
G92 E0
G1 F1500 E-2
;LAYER_COUNT:69
;LAYER:0
M107
G0 F1650 X59.99 Y47.548 Z0.3
;TYPE:SKIRT
G1 F1500 E0
G1 F900 X60.743 Y46.622 E0.08932
G1 X61.144 Y46.197 E0.13304
G1 X61.724 Y45.64 E0.19322
G1 X62.489 Y45.052 E0.26543
G1 X63.067 Y44.66 E0.31769
G1 X63.754 Y44.242 E0.37787
G1 X64.48 Y43.894 E0.43812
G1 X64.863 Y43.745 E0.46888
G1 X65.622 Y43.471 E0.52927
G1 X66.391 Y43.236 E0.58944
G1 X67.358 Y43.054 E0.66308
G1 X67.865 Y42.99 E0.70132
G1 X68.879 Y42.926 E0.77735
G1 X131.18 Y42.929 E5.43967
G1 X131.984 Y42.969 E5.49991
G1 X132.566 Y43.049 E5.54387
G1 X133.228 Y43.164 E5.59416
G1 X134.013 Y43.34 E5.65436
G1 X134.777 Y43.594 E5.71461
G1 X135.148 Y43.75 E5.74473
G1 X135.886 Y44.08 E5.80523
G1 X136.604 Y44.444 E5.86547
G1 X137.282 Y44.878 E5.92571
G1 X137.693 Y45.191 E5.96438
G1 X138.289 Y45.676 E6.02188
G1 X138.887 Y46.215 E6.08213
G1 X139.506 Y46.905 E6.1515
G1 X139.831 Y47.312 E6.19047
G1 X140.301 Y47.965 E6.25068
G1 X140.704 Y48.661 E6.31087
G1 X141.009 Y49.327 E6.36569
G1 X141.459 Y50.439 E6.45546
G1 X141.724 Y51.2 E6.51576
G1 X141.912 Y51.982 E6.57595
G1 X142.021 Y52.779 E6.63615
G1 X142.051 Y53.469 E6.68784
G1 X142.094 Y91.197 E9.51122
G1 X142.055 Y92.001 E9.57146
G1 X141.962 Y92.661 E9.62134
G1 X141.832 Y93.373 E9.67551
G1 X141.649 Y94.156 E9.73568
G1 X141.253 Y95.237 E9.82183
G1 X140.961 Y95.887 E9.87516
G1 X140.595 Y96.604 E9.9354
G1 X140.16 Y97.281 E9.99562
G1 X139.747 Y97.81 E10.04585
G1 X139.118 Y98.551 E10.11859
G1 X138.568 Y99.138 E10.17878
G1 X138.19 Y99.468 E10.21633
G1 X138.572 Y99.831 E10.25577
G1 X139.298 Y100.709 E10.34103
G1 X139.589 Y101.116 E10.37847
G1 X140.024 Y101.793 E10.43869
G1 X140.39 Y102.51 E10.49893
G1 X140.682 Y103.259 E10.5591
G1 X140.847 Y103.82 E10.60286
G1 X141.003 Y104.43 E10.64997
G1 X141.164 Y105.219 E10.71024
G1 X141.245 Y106.019 E10.77041
G1 X141.256 Y106.445 E10.8023
G1 X141.217 Y145.855 E13.75156
G1 X141.176 Y146.659 E13.81181
G1 X141.056 Y147.454 E13.87198
G1 X140.857 Y148.234 E13.93222
G1 X140.596 Y148.957 E13.98974
G1 X140.406 Y149.414 E14.02678
G1 X140.061 Y150.14 E14.08693
G1 X139.645 Y150.829 E14.14716
G1 X139.206 Y151.421 E14.20232
G1 X138.955 Y151.729 E14.23205
G1 X138.416 Y152.327 E14.2923
G1 X137.821 Y152.868 E14.35248
G1 X137.175 Y153.348 E14.41271
G1 X136.823 Y153.57 E14.44385
G1 X136.261 Y153.905 E14.49281
G1 X135.551 Y154.282 E14.55297
G1 X134.806 Y154.587 E14.61322
G1 X133.823 Y154.865 E14.68966
G1 X133.494 Y154.936 E14.71485
G1 X132.7 Y155.066 E14.77506
G1 X131.786 Y155.118 E14.84357
G1 X67.512 Y155.122 E19.65354
G1 X66.708 Y155.082 E19.71378
G1 X65.73 Y154.924 E19.78792
G1 X65.304 Y154.828 E19.82059
G1 X64.529 Y154.612 E19.8808
G1 X63.779 Y154.321 E19.94101
G1 X63.085 Y153.969 E19.99924
G1 X62.673 Y153.735 E20.0347
G1 X61.994 Y153.304 E20.09488
G1 X61.361 Y152.807 E20.15511
G1 X60.566 Y152.013 E20.2392
G1 X60.221 Y151.617 E20.2785
G1 X59.723 Y150.984 E20.33877
G1 X59.29 Y150.306 E20.39898
G1 X58.927 Y149.588 E20.45918
G1 X58.597 Y148.711 E20.52931
G1 X58.373 Y147.994 E20.58552
G1 X58.171 Y147.215 E20.64575
G1 X58.048 Y146.42 E20.70595
G1 X58.004 Y145.576 E20.76919
G1 X58.019 Y106.275 E23.7103
G1 X58.059 Y105.471 E23.77054
G1 X58.179 Y104.675 E23.83078
G1 X58.43 Y103.73 E23.90395
G1 X58.598 Y103.223 E23.94392
G1 X58.889 Y102.473 E24.00413
G1 X59.253 Y101.755 E24.06437
G1 X59.686 Y101.077 E24.12457
G1 X60.006 Y100.656 E24.16414
G1 X60.357 Y100.225 E24.20574
G1 X60.896 Y99.627 E24.26599
G1 X61.453 Y99.12 E24.32235
G1 X61.337 Y99.018 E24.33391
G1 X60.76 Y98.457 E24.39414
G1 X60.041 Y97.563 E24.47999
G1 X59.744 Y97.135 E24.51898
G1 X59.319 Y96.452 E24.57918
G1 X58.943 Y95.682 E24.64331
G1 X58.665 Y95.027 E24.69656
G1 X58.388 Y94.271 E24.75681
G1 X58.128 Y93.172 E24.84132
G1 X58.011 Y92.458 E24.89547
G1 X57.92 Y91.658 E24.95572
G1 X57.904 Y91.149 E24.99383
G1 X57.901 Y53.915 E27.78025
G1 X57.941 Y53.111 E27.84049
G1 X58.052 Y52.357 E27.89753
G1 X58.233 Y51.433 E27.96799
G1 X58.427 Y50.652 E28.02821
G1 X58.697 Y49.894 E28.08843
G1 X59.111 Y49.039 E28.15952
G1 X59.563 Y48.23 E28.22887
G1 X59.99 Y47.548 E28.28908
G0 F1650 X60.499 Y47.867
G1 F900 X61.179 Y47.034 E28.36955
G1 X61.58 Y46.609 E28.41328
G1 X62.14 Y46.074 E28.47124
G1 X62.825 Y45.549 E28.53583
G1 X63.403 Y45.157 E28.58809
G1 X64.066 Y44.756 E28.64608
G1 X65.066 Y44.31 E28.72802
G1 X65.825 Y44.036 E28.78841
G1 X66.566 Y43.811 E28.84636
G1 X67.433 Y43.649 E28.91236
G1 X67.94 Y43.585 E28.95061
G1 X68.879 Y43.526 E29.02101
G1 X131.18 Y43.529 E33.68333
G1 X131.954 Y43.569 E33.74133
G1 X132.464 Y43.64 E33.77986
G1 X133.126 Y43.755 E33.83015
G1 X133.881 Y43.926 E33.88808
G1 X134.904 Y44.297 E33.96951
G1 X135.642 Y44.627 E34.03001
G1 X136.331 Y44.979 E34.08791
G1 X136.981 Y45.401 E34.14591
G1 X137.314 Y45.657 E34.17734
G1 X137.91 Y46.142 E34.23484
G1 X138.484 Y46.661 E34.29276
G1 X139.037 Y47.279 E34.35482
G1 X139.362 Y47.686 E34.39379
G1 X139.813 Y48.315 E34.45171
G1 X140.197 Y48.988 E34.5097
G1 X140.453 Y49.553 E34.55612
G1 X140.903 Y50.665 E34.64589
G1 X141.156 Y51.396 E34.70378
G1 X141.333 Y52.15 E34.76174
G1 X141.43 Y52.919 E34.81974
G1 X141.451 Y53.469 E34.86093
G1 X141.494 Y91.197 E37.68432
G1 X141.455 Y91.971 E37.74232
G1 X141.372 Y92.553 E37.78631
G1 X141.242 Y93.265 E37.84048
G1 X141.064 Y94.019 E37.89845
G1 X140.705 Y94.991 E37.976
G1 X140.413 Y95.641 E38.02932
G1 X140.06 Y96.33 E38.08726
G1 X139.638 Y96.979 E38.14519
G1 X139.29 Y97.422 E38.18735
G1 X138.661 Y98.163 E38.26008
G1 X138.13 Y98.726 E38.318
G1 X137.544 Y99.232 E38.37594
G1 X137.238 Y99.453 E38.40419
G1 X137.62 Y99.751 E38.44044
G1 X138.178 Y100.288 E38.4984
G1 X138.81 Y101.058 E38.57295
G1 X139.101 Y101.465 E38.61039
G1 X139.518 Y102.117 E38.66831
G1 X139.866 Y102.809 E38.72627
G1 X140.141 Y103.533 E38.78423
G1 X140.266 Y103.969 E38.81817
G1 X140.422 Y104.579 E38.86529
G1 X140.575 Y105.338 E38.92323
G1 X140.656 Y106.444 E39.00622
G1 X140.617 Y145.854 E41.95548
G1 X140.576 Y146.628 E42.01349
G1 X140.456 Y147.393 E42.07144
G1 X140.258 Y148.141 E42.12934
G1 X140.042 Y148.726 E42.17601
G1 X139.852 Y149.183 E42.21305
G1 X139.519 Y149.882 E42.27099
G1 X139.114 Y150.543 E42.329
G1 X138.741 Y151.042 E42.37562
G1 X138.49 Y151.35 E42.40536
G1 X137.97 Y151.924 E42.46332
G1 X137.394 Y152.442 E42.52129
G1 X136.516 Y153.054 E42.60138
G1 X135.954 Y153.389 E42.65035
G1 X135.269 Y153.751 E42.70833
G1 X134.551 Y154.04 E42.76625
G1 X133.696 Y154.278 E42.83266
G1 X133.367 Y154.349 E42.85785
G1 X132.603 Y154.473 E42.91577
G1 X131.785 Y154.518 E42.97708
G1 X67.511 Y154.522 E47.78705
G1 X66.738 Y154.482 E47.84497
G1 X65.862 Y154.339 E47.91139
G1 X65.436 Y154.243 E47.94407
G1 X64.691 Y154.034 E48.00198
G1 X63.971 Y153.749 E48.05993
G1 X63.381 Y153.448 E48.10949
G1 X62.969 Y153.214 E48.14495
G1 X62.316 Y152.797 E48.20293
G1 X61.71 Y152.315 E48.26088
G1 X61.018 Y151.619 E48.33433
G1 X60.673 Y151.223 E48.37363
G1 X60.195 Y150.613 E48.43163
G1 X59.783 Y149.958 E48.48954
G1 X59.44 Y149.264 E48.54747
G1 X59.169 Y148.532 E48.60588
G1 X58.945 Y147.815 E48.6621
G1 X58.753 Y147.065 E48.72003
G1 X58.639 Y146.3 E48.77791
G1 X58.604 Y145.576 E48.83216
G1 X58.619 Y106.275 E51.77326
G1 X58.659 Y105.502 E51.83119
G1 X58.779 Y104.737 E51.88913
G1 X59 Y103.919 E51.95254
G1 X59.168 Y103.412 E51.99251
G1 X59.449 Y102.69 E52.05049
G1 X59.803 Y102.002 E52.1084
G1 X60.226 Y101.353 E52.16637
G1 X60.472 Y101.035 E52.19646
G1 X60.823 Y100.604 E52.23805
G1 X61.342 Y100.03 E52.29596
G1 X61.918 Y99.512 E52.35394
G1 X62.4 Y99.157 E52.39873
G1 X61.734 Y98.569 E52.46522
G1 X61.18 Y98.027 E52.52322
G1 X60.534 Y97.221 E52.60052
G1 X60.237 Y96.793 E52.63951
G1 X59.829 Y96.135 E52.69745
G1 X59.495 Y95.447 E52.75468
G1 X59.217 Y94.792 E52.80793
G1 X58.952 Y94.065 E52.86583
G1 X58.72 Y93.075 E52.94193
G1 X58.603 Y92.361 E52.99607
G1 X58.517 Y91.591 E53.05406
G1 X58.504 Y91.149 E53.08715
G1 X58.501 Y53.915 E55.87356
G1 X58.541 Y53.141 E55.93156
G1 X58.641 Y52.472 E55.98219
G1 X58.822 Y51.548 E56.05265
G1 X59.01 Y50.797 E56.11058
G1 X59.274 Y50.069 E56.16853
G1 X59.635 Y49.332 E56.22995
G1 X60.087 Y48.523 E56.2993
G1 X60.499 Y47.867 E56.35727
G0 F1650 X61.007 Y48.188
G1 F900 X61.615 Y47.446 E56.42906
G1 X62.016 Y47.021 E56.47279
G1 X62.554 Y46.509 E56.52837
G1 X63.162 Y46.045 E56.5856
G1 X63.74 Y45.653 E56.63787
G1 X64.376 Y45.27 E56.69343
G1 X65.27 Y44.874 E56.7666
G1 X66.029 Y44.6 E56.82699
G1 X66.74 Y44.386 E56.88255
G1 X67.508 Y44.244 E56.941
G1 X68.015 Y44.18 E56.97924
G1 X68.879 Y44.126 E57.04403
G1 X131.18 Y44.129 E61.70634
G1 X131.922 Y44.169 E61.76195
G1 X132.361 Y44.231 E61.79513
G1 X133.023 Y44.346 E61.84541
G1 X133.747 Y44.512 E61.901
G1 X134.659 Y44.845 E61.97365
G1 X135.397 Y45.175 E62.03415
G1 X136.057 Y45.514 E62.08968
G1 X136.935 Y46.122 E62.1696
G1 X137.531 Y46.607 E62.2271
G1 X138.081 Y47.106 E62.28268
G1 X138.568 Y47.653 E62.33749
G1 X138.893 Y48.06 E62.37646
G1 X139.324 Y48.665 E62.43205
G1 X139.688 Y49.312 E62.48761
G1 X139.897 Y49.778 E62.52583
G1 X140.347 Y50.89 E62.6156
G1 X140.588 Y51.592 E62.67114
G1 X140.753 Y52.316 E62.72671
G1 X140.838 Y53.054 E62.78231
G1 X140.851 Y53.47 E62.81345
G1 X140.894 Y91.198 E65.63684
G1 X140.855 Y91.94 E65.69245
G1 X140.782 Y92.445 E65.73063
G1 X140.652 Y93.157 E65.78479
G1 X140.479 Y93.88 E65.84043
G1 X140.158 Y94.745 E65.90947
G1 X139.866 Y95.395 E65.9628
G1 X139.526 Y96.056 E66.01843
G1 X139.116 Y96.675 E66.07399
G1 X138.832 Y97.033 E66.10819
G1 X138.203 Y97.774 E66.18092
G1 X137.693 Y98.314 E66.23651
G1 X137.128 Y98.795 E66.29204
G1 X136.773 Y99.049 E66.3247
G1 X136.19 Y99.438 E66.37715
G1 X136.232 Y99.464 E66.38085
G1 X136.665 Y99.767 E66.4204
G1 X137.25 Y100.225 E66.476
G1 X137.782 Y100.743 E66.53157
G1 X138.322 Y101.407 E66.59562
G1 X138.613 Y101.814 E66.63306
G1 X139.012 Y102.44 E66.68861
G1 X139.341 Y103.106 E66.7442
G1 X139.685 Y104.117 E66.82412
G1 X139.841 Y104.727 E66.87124
G1 X139.986 Y105.456 E66.92686
G1 X140.056 Y106.444 E67.00098
G1 X140.017 Y145.854 E69.95024
G1 X139.976 Y146.595 E70.00578
G1 X139.856 Y147.328 E70.06137
G1 X139.658 Y148.044 E70.11696
G1 X139.488 Y148.496 E70.1531
G1 X139.298 Y148.953 E70.19014
G1 X138.977 Y149.622 E70.24567
G1 X138.585 Y150.253 E70.30126
G1 X138.276 Y150.663 E70.33968
G1 X138.025 Y150.971 E70.36941
G1 X137.525 Y151.521 E70.42504
G1 X136.97 Y152.013 E70.48054
G1 X136.209 Y152.539 E70.54977
G1 X135.647 Y152.874 E70.59873
G1 X134.989 Y153.219 E70.65433
G1 X134.299 Y153.492 E70.70986
G1 X133.57 Y153.692 E70.76644
G1 X133.241 Y153.763 E70.79162
G1 X132.507 Y153.88 E70.84725
G1 X131.785 Y153.918 E70.90135
G1 X67.511 Y153.922 E75.71132
G1 X66.77 Y153.882 E75.76685
G1 X65.994 Y153.753 E75.82572
G1 X65.568 Y153.657 E75.8584
G1 X64.853 Y153.455 E75.914
G1 X64.165 Y153.177 E75.96953
G1 X63.677 Y152.926 E76.0106
G1 X63.265 Y152.692 E76.04606
G1 X62.64 Y152.291 E76.10163
G1 X62.062 Y151.825 E76.15719
G1 X61.47 Y151.225 E76.22027
G1 X61.125 Y150.829 E76.25957
G1 X60.668 Y150.243 E76.31518
G1 X60.277 Y149.612 E76.37073
G1 X59.956 Y148.942 E76.42633
G1 X59.742 Y148.354 E76.47316
G1 X59.518 Y147.637 E76.52937
G1 X59.335 Y146.917 E76.58497
G1 X59.23 Y146.181 E76.6406
G1 X59.204 Y145.576 E76.68592
G1 X59.219 Y106.275 E79.62702
G1 X59.259 Y105.534 E79.68256
G1 X59.379 Y104.801 E79.73814
G1 X59.569 Y104.108 E79.79192
G1 X59.737 Y103.601 E79.83189
G1 X60.008 Y102.909 E79.8875
G1 X60.352 Y102.251 E79.94307
G1 X60.937 Y101.414 E80.01949
G1 X61.288 Y100.983 E80.06108
G1 X61.787 Y100.433 E80.11666
G1 X62.343 Y99.94 E80.17227
G1 X62.806 Y99.602 E80.21517
G1 X63.116 Y99.395 E80.24306
G1 X63.441 Y99.202 E80.27135
G1 X63.128 Y98.983 E80.29994
G1 X62.82 Y98.727 E80.32991
G1 X62.131 Y98.119 E80.39868
G1 X61.601 Y97.598 E80.45429
G1 X61.027 Y96.879 E80.52314
G1 X60.73 Y96.451 E80.56213
G1 X60.34 Y95.819 E80.6177
G1 X60.047 Y95.213 E80.66808
G1 X59.769 Y94.558 E80.72133
G1 X59.516 Y93.859 E80.77696
G1 X59.312 Y92.978 E80.84463
G1 X59.195 Y92.264 E80.89878
G1 X59.114 Y91.525 E80.95441
G1 X59.104 Y91.149 E80.98256
G1 X59.101 Y53.915 E83.76898
G1 X59.141 Y53.173 E83.82459
G1 X59.23 Y52.588 E83.86887
G1 X59.411 Y51.664 E83.93933
G1 X59.592 Y50.943 E83.99496
G1 X59.851 Y50.247 E84.05054
G1 X60.158 Y49.625 E84.10244
G1 X60.61 Y48.816 E84.17179
G1 X61.007 Y48.188 E84.22739
G0 F1650 X61.515 Y48.509
G1 F900 X62.052 Y47.857 E84.29061
G1 X62.453 Y47.432 E84.33433
G1 X62.968 Y46.945 E84.38738
G1 X63.499 Y46.542 E84.43726
G1 X64.077 Y46.15 E84.48953
G1 X64.686 Y45.785 E84.54266
G1 X65.474 Y45.438 E84.60709
G1 X66.233 Y45.164 E84.66748
G1 X66.913 Y44.961 E84.72059
G1 X67.583 Y44.84 E84.77154
G1 X68.09 Y44.776 E84.80978
G1 X68.879 Y44.726 E84.86895
G1 X131.18 Y44.729 E89.53126
G1 X131.889 Y44.769 E89.5844
G1 X132.258 Y44.822 E89.6123
G1 X132.92 Y44.937 E89.66258
G1 X133.611 Y45.098 E89.71568
G1 X134.414 Y45.393 E89.7797
G1 X135.152 Y45.723 E89.8402
G1 X135.782 Y46.048 E89.89325
G1 X136.556 Y46.587 E89.96383
G1 X137.152 Y47.072 E90.02134
G1 X137.677 Y47.551 E90.07452
G1 X138.099 Y48.028 E90.12218
G1 X138.424 Y48.435 E90.16116
G1 X138.835 Y49.013 E90.21423
G1 X139.178 Y49.635 E90.26739
G1 X139.341 Y50.003 E90.29751
G1 X139.791 Y51.115 E90.38728
G1 X140.02 Y51.786 E90.44034
G1 X140.171 Y52.48 E90.49349
G1 X140.251 Y53.471 E90.56789
G1 X140.294 Y91.199 E93.39128
G1 X140.255 Y91.907 E93.44434
G1 X140.192 Y92.338 E93.47694
G1 X140.062 Y93.05 E93.53111
G1 X139.895 Y93.739 E93.58416
G1 X139.611 Y94.5 E93.64495
G1 X139.319 Y95.15 E93.69827
G1 X138.992 Y95.78 E93.75139
G1 X138.375 Y96.645 E93.8309
G1 X137.746 Y97.386 E93.90364
G1 X137.257 Y97.9 E93.95673
G1 X136.44 Y98.55 E94.03486
G1 X135.854 Y98.941 E94.08758
G1 X135.242 Y99.301 E94.14072
G1 X134.951 Y99.424 E94.16436
G1 X135.219 Y99.547 E94.18643
G1 X135.888 Y99.955 E94.24507
G1 X136.321 Y100.258 E94.28462
G1 X136.879 Y100.697 E94.33775
G1 X137.383 Y101.196 E94.39083
G1 X137.834 Y101.756 E94.44463
G1 X138.125 Y102.163 E94.48208
G1 X138.504 Y102.762 E94.53512
G1 X138.814 Y103.401 E94.58827
G1 X139.104 Y104.266 E94.65655
G1 X139.26 Y104.876 E94.70366
G1 X139.396 Y105.572 E94.75673
G1 X139.456 Y106.443 E94.82207
G1 X139.417 Y145.853 E97.77133
G1 X139.376 Y146.562 E97.82448
G1 X139.256 Y147.261 E97.87755
G1 X138.934 Y148.266 E97.95653
G1 X138.744 Y148.723 E97.99357
G1 X138.435 Y149.361 E98.04662
G1 X138.057 Y149.962 E98.09975
G1 X137.811 Y150.284 E98.13007
G1 X137.56 Y150.592 E98.15981
G1 X137.081 Y151.116 E98.21294
G1 X136.547 Y151.583 E98.26602
G1 X135.902 Y152.024 E98.3245
G1 X135.34 Y152.359 E98.37346
G1 X134.711 Y152.687 E98.42655
G1 X134.049 Y152.943 E98.47966
G1 X133.443 Y153.105 E98.5266
G1 X133.114 Y153.176 E98.55179
G1 X132.413 Y153.287 E98.60491
G1 X131.785 Y153.318 E98.65196
G1 X67.511 Y153.322 E103.46192
G1 X66.803 Y153.282 E103.51499
G1 X66.126 Y153.168 E103.56637
G1 X65.7 Y153.072 E103.59905
G1 X65.018 Y152.877 E103.65213
G1 X64.361 Y152.607 E103.70529
G1 X63.974 Y152.404 E103.73799
G1 X63.562 Y152.17 E103.77345
G1 X62.965 Y151.785 E103.82661
G1 X62.416 Y151.336 E103.87969
G1 X61.923 Y150.83 E103.93255
G1 X61.578 Y150.434 E103.97186
G1 X61.143 Y149.874 E104.02492
G1 X60.773 Y149.268 E104.07806
G1 X60.474 Y148.624 E104.13119
G1 X60.315 Y148.175 E104.16684
G1 X60.091 Y147.458 E104.22305
G1 X59.917 Y146.769 E104.27623
G1 X59.823 Y146.066 E104.32931
G1 X59.804 Y145.577 E104.36593
G1 X59.819 Y106.276 E107.30704
G1 X59.859 Y105.567 E107.36018
G1 X59.979 Y104.868 E107.41325
G1 X60.139 Y104.296 E107.4577
G1 X60.307 Y103.789 E107.49767
G1 X60.568 Y103.129 E107.55079
G1 X60.901 Y102.503 E107.60385
G1 X61.402 Y101.793 E107.66888
G1 X61.753 Y101.362 E107.71047
G1 X62.231 Y100.838 E107.76355
G1 X62.766 Y100.371 E107.8167
G1 X63.139 Y100.101 E107.85116
G1 X63.449 Y99.894 E107.87905
G1 X64.061 Y99.533 E107.93222
G1 X64.713 Y99.259 E107.98515
G1 X64.647 Y99.227 E107.99064
G1 X64.026 Y98.883 E108.04377
G1 X63.217 Y98.277 E108.11941
G1 X62.528 Y97.669 E108.18818
