;FLAVOR:Marlin
;TIME:18466
;Filament used: 23.6787m
;Layer height: 0.3
;Generated with Cura_SteamEngine 4.0.0
M140 S100
M105
M190 S100
M104 S245
M105
M109 S245
M82 ;absolute extrusion mode
G28 ;Home

G29 ; auto level

G1 Z15.0 F6000 ;Move the platform down 15mm

M25 ; Pause and wait for instruction

G92 E0
G1 F200 E3
G92 E0
G92 E0
G1 F1500 E-2
;LAYER_COUNT:69
;LAYER:-6
M107
G0 F3300 X51.717 Y42.322 Z0.36
;TYPE:SUPPORT-INTERFACE
G1 F1500 E0
G1 F675 X52.422 Y41.499 E0.19463
G1 X53.047 Y40.857 E0.35556
G1 X53.246 Y40.666 E0.4051
G1 X54.183 Y39.841 E0.62932
G1 X55.143 Y39.109 E0.84615
G1 X55.718 Y38.724 E0.97043
G1 X56.111 Y38.477 E1.0538
G1 X56.961 Y37.982 E1.23046
G1 X57.107 Y37.904 E1.26019
G1 X58.202 Y37.382 E1.47807
G1 X58.539 Y37.238 E1.54389
G1 X59.531 Y36.856 E1.73481
G1 X60.392 Y36.588 E1.89677
G1 X60.788 Y36.48 E1.97049
G1 X61.858 Y36.231 E2.1678
G1 X62.806 Y36.076 E2.34032
G1 X63.215 Y36.026 E2.41433
G1 X64.175 Y35.94 E2.58744
G1 X65.027 Y35.912 E2.74055
G1 X127.325 Y35.908 E13.92956
G1 X128.761 Y35.981 E14.18781
G1 X129.035 Y36.008 E14.23726
G1 X130.049 Y36.143 E14.42098
G1 X130.99 Y36.328 E14.59323
G1 X131.333 Y36.409 E14.65653
G1 X132.32 Y36.679 E14.84031
G1 X133.192 Y36.977 E15.00582
G1 X133.605 Y37.135 E15.08524
G1 X134.6 Y37.561 E15.27963
G1 X135.432 Y37.985 E15.44735
G1 X135.873 Y38.23 E15.53796
G1 X136.684 Y38.72 E15.70814
G1 X137.668 Y39.417 E15.92472
G1 X137.966 Y39.646 E15.99222
G1 X138.793 Y40.334 E16.18543
G1 X139.684 Y41.199 E16.40846
G1 X140.004 Y41.536 E16.49193
G1 X140.675 Y42.302 E16.67483
G1 X141.077 Y42.813 E16.7916
G1 X141.23 Y43.022 E16.83812
G1 X141.891 Y43.992 E17.04894
G1 X142.008 Y44.178 E17.08841
G1 X142.505 Y45.038 E17.26681
G1 X142.581 Y45.181 E17.29589
G1 X142.924 Y45.879 E17.43558
G1 X143.146 Y46.372 E17.53268
G1 X143.29 Y46.722 E17.60066
G1 X143.618 Y47.384 E17.73335
G1 X143.944 Y47.951 E17.85082
G1 X144.401 Y48.89 E18.03838
G1 X144.749 Y49.751 E18.20517
G1 X145.062 Y50.71 E18.38636
G1 X145.116 Y50.902 E18.42218
G1 X145.321 Y51.745 E18.578
G1 X145.357 Y51.921 E18.61026
G1 X145.5 Y52.784 E18.76738
G1 X145.524 Y52.97 E18.80106
G1 X145.604 Y53.839 E18.9578
G1 X145.633 Y54.713 E19.11486
G1 X145.633 Y58.141 E19.73054
G1 X145.589 Y59.268 E19.93311
G1 X145.464 Y60.343 E20.12749
G1 X145.269 Y61.364 E20.31418
G1 X145.001 Y62.37 E20.50116
G1 X144.89 Y62.697 E20.56318
G1 X144.71 Y63.362 E20.68692
G1 X144.614 Y64.055 E20.81257
G1 X144.598 Y64.471 E20.88734
G1 X144.597 Y78.967 E23.49089
G1 X144.641 Y79.655 E23.61472
G1 X144.676 Y79.84 E23.64853
G1 X144.62 Y79.84 E23.65859
G1 X145.175 Y81.701 E24.00738
G1 X145.4 Y82.728 E24.19621
G1 X145.55 Y83.774 E24.386
G1 X145.625 Y84.835 E24.57703
G1 X145.633 Y85.346 E24.66882
G1 X145.633 Y88.842 E25.29672
G1 X145.589 Y89.969 E25.49929
G1 X145.464 Y91.044 E25.69367
G1 X145.269 Y92.067 E25.88071
G1 X145.045 Y92.922 E26.03945
G1 X144.993 Y93.095 E26.0719
G1 X144.644 Y94.1 E26.26298
G1 X144.313 Y94.879 E26.41499
G1 X144.228 Y95.061 E26.45107
G1 X143.838 Y95.819 E26.60418
G1 X143.622 Y96.206 E26.68378
G1 X143.599 Y96.198 E26.68815
G1 X143.505 Y96.415 E26.73062
G1 X143.388 Y96.625 E26.7738
G1 X143.41 Y96.636 E26.77822
G1 X143.166 Y97.2 E26.88859
G1 X142.933 Y97.847 E27.0121
G1 X142.78 Y98.539 E27.13938
G1 X142.715 Y99.244 E27.26654
G1 X142.74 Y99.952 E27.39378
G1 X142.853 Y100.646 E27.52007
G1 X142.99 Y101.138 E27.6118
G1 X143.285 Y102.036 E27.78156
G1 X143.334 Y102.211 E27.8142
G1 X143.644 Y103.524 E28.05651
G1 X143.673 Y103.685 E28.08589
G1 X143.831 Y104.761 E28.28122
G1 X143.888 Y105.414 E28.39894
G1 X143.928 Y106.508 E28.59556
G1 X143.925 Y145.541 E35.60607
G1 X143.879 Y146.675 E35.80991
G1 X143.796 Y147.475 E35.95437
G1 X143.759 Y147.748 E36.00385
G1 X143.574 Y148.818 E36.19888
G1 X143.324 Y149.825 E36.38523
G1 X143 Y150.825 E36.57403
G1 X142.893 Y151.117 E36.62988
G1 X142.478 Y152.128 E36.82616
G1 X142.009 Y153.069 E37.015
G1 X141.513 Y153.915 E37.19113
G1 X141.36 Y154.154 E37.2421
G1 X140.83 Y154.928 E37.41058
G1 X140.724 Y155.069 E37.44227
G1 X139.825 Y156.162 E37.69645
G1 X139.695 Y156.304 E37.73102
G1 X138.933 Y157.078 E37.9261
G1 X138.138 Y157.778 E38.11635
G1 X137.528 Y158.249 E38.25477
G1 X137.246 Y158.454 E38.31738
G1 X136.493 Y158.967 E38.48103
G1 X136.313 Y159.08 E38.5192
G1 X135.583 Y159.502 E38.67064
G1 X135.425 Y159.586 E38.70278
G1 X134.522 Y160.023 E38.88296
G1 X134.297 Y160.122 E38.92711
G1 X133.403 Y160.478 E39.09994
G1 X133.274 Y160.524 E39.12453
G1 X132.016 Y160.908 E39.36077
G1 X130.866 Y161.165 E39.57241
G1 X130.188 Y161.273 E39.69572
G1 X129.949 Y161.304 E39.739
G1 X129.04 Y161.389 E39.90297
G1 X128.868 Y161.4 E39.93393
G1 X128.049 Y161.422 E40.08108
G1 X63.959 Y161.425 E51.59195
G1 X62.858 Y161.382 E51.78984
G1 X61.704 Y161.253 E51.9984
G1 X60.741 Y161.086 E52.17394
G1 X60.572 Y161.049 E52.20501
G1 X59.216 Y160.687 E52.45708
G1 X59.08 Y160.644 E52.4827
G1 X58.052 Y160.272 E52.67905
G1 X57.223 Y159.907 E52.84174
G1 X57.025 Y159.811 E52.88126
G1 X56.057 Y159.3 E53.07785
G1 X55.23 Y158.787 E53.25264
G1 X55.037 Y158.657 E53.29444
G1 X54.301 Y158.127 E53.45733
G1 X54.132 Y157.994 E53.49596
G1 X53.028 Y157.037 E53.75837
G1 X52.862 Y156.875 E53.80003
G1 X52.247 Y156.242 E53.95854
G1 X52.116 Y156.097 E53.99364
G1 X51.218 Y154.992 E54.24937
G1 X51.069 Y154.784 E54.29533
G1 X50.555 Y154.032 E54.45892
G1 X50.077 Y153.231 E54.62646
G1 X49.577 Y152.248 E54.82453
G1 X49.5 Y152.08 E54.85773
G1 X49.137 Y151.209 E55.0272
G1 X48.798 Y150.237 E55.21209
G1 X48.562 Y149.401 E55.36811
G1 X48.517 Y149.215 E55.40248
G1 X48.323 Y148.284 E55.57328
G1 X48.287 Y148.083 E55.60996
G1 X48.158 Y147.113 E55.78571
G1 X48.078 Y145.613 E56.0555
G1 X48.075 Y106.534 E63.07427
G1 X48.125 Y105.286 E63.2986
G1 X48.139 Y105.086 E63.33461
G1 X48.263 Y104.066 E63.51915
G1 X48.291 Y103.89 E63.55116
G1 X48.527 Y102.748 E63.76061
G1 X48.797 Y101.767 E63.94335
G1 X48.863 Y101.564 E63.98169
G1 X49.128 Y100.86 E64.11679
G1 X49.33 Y100.2 E64.24076
G1 X49.45 Y99.502 E64.36796
G1 X49.48 Y98.795 E64.49506
G1 X49.422 Y98.089 E64.62228
G1 X49.275 Y97.403 E64.74829
G1 X49.127 Y96.95 E64.83388
G1 X48.703 Y95.812 E65.052
G1 X48.551 Y95.329 E65.14294
G1 X48.31 Y94.478 E65.3018
G1 X48.271 Y94.322 E65.33068
G1 X48.119 Y93.614 E65.46073
G1 X48.075 Y93.365 E65.50615
G1 X47.874 Y91.875 E65.77618
G1 X47.847 Y91.548 E65.83511
G1 X47.801 Y90.396 E66.04218
G1 X47.8 Y64.682 E70.66054
G1 X47.756 Y63.994 E70.78436
G1 X47.722 Y63.815 E70.81708
G1 X47.779 Y63.815 E70.82732
G1 X47.223 Y61.951 E71.17668
G1 X46.999 Y60.927 E71.36495
G1 X46.864 Y60.013 E71.53088
G1 X46.849 Y59.876 E71.55564
G1 X46.774 Y58.819 E71.74596
G1 X46.766 Y58.314 E71.83667
G1 X46.765 Y54.738 E72.47894
G1 X46.802 Y53.731 E72.65992
G1 X46.908 Y52.713 E72.84375
G1 X46.934 Y52.532 E72.87659
G1 X47.128 Y51.515 E73.06254
G1 X47.394 Y50.511 E73.24908
G1 X47.688 Y49.651 E73.41232
G1 X47.756 Y49.472 E73.44671
G1 X48.157 Y48.543 E73.62844
G1 X48.556 Y47.765 E73.78548
G1 X48.729 Y47.465 E73.84768
G1 X49.099 Y46.736 E73.99451
G1 X49.331 Y46.174 E74.10371
G1 X49.417 Y45.988 E74.14052
G1 X49.955 Y44.932 E74.35337
G1 X50.171 Y44.55 E74.43219
G1 X50.654 Y43.763 E74.59804
G1 X50.778 Y43.579 E74.63789
G1 X51.509 Y42.58 E74.86022
G1 X51.717 Y42.322 E74.91974
G0 F3300 X52.8 Y41.11
G1 F675 X52.8 Y156.811 E95.70019
G0 F3300 X55.2 Y158.766
G1 F675 X55.2 Y39.07 E117.19816
G0 F3300 X57.6 Y37.668
G1 F675 X57.6 Y160.072 E139.18249
G0 F3300 X60 Y160.896
G1 F675 X60 Y36.71 E161.48689
G0 F3300 X62.4 Y36.142
G1 F675 X62.4 Y161.33 E183.97124
G0 F3300 X64.8 Y161.425
G1 F675 X64.8 Y35.919 E206.51271
G0 F3300 X67.2 Y35.911
G1 F675 X67.2 Y161.425 E229.05562
G0 F3300 X69.6 Y161.425
G1 F675 X69.6 Y35.911 E251.59853
G0 F3300 X72 Y35.911
G1 F675 X72 Y161.425 E274.14144
G0 F3300 X74.4 Y161.425
G1 F675 X74.4 Y35.911 E296.68435
G0 F3300 X76.8 Y35.911
G1 F675 X76.8 Y161.425 E319.22725
G0 F3300 X79.2 Y161.425
G1 F675 X79.2 Y35.911 E341.77016
G0 F3300 X81.6 Y35.91
G1 F675 X81.6 Y161.425 E364.31325
G0 F3300 X84 Y161.425
G1 F675 X84 Y35.91 E386.85634
G0 F3300 X86.4 Y35.91
G1 F675 X86.4 Y161.424 E409.39924
G0 F3300 X88.8 Y161.424
G1 F675 X88.8 Y35.91 E431.94215
G0 F3300 X91.2 Y35.91
G1 F675 X91.2 Y161.424 E454.48506
G0 F3300 X93.6 Y161.424
G1 F675 X93.6 Y35.91 E477.02797
G0 F3300 X96 Y35.91
G1 F675 X96 Y161.424 E499.57088
G0 F3300 X98.4 Y161.424
G1 F675 X98.4 Y35.909 E522.11396
G0 F3300 X100.8 Y35.909
G1 F675 X100.8 Y161.424 E544.65705
G0 F3300 X103.2 Y161.424
G1 F675 X103.2 Y35.909 E567.20014
G0 F3300 X105.6 Y35.909
G1 F675 X105.6 Y161.424 E589.74323
G0 F3300 X108 Y161.423
G1 F675 X108 Y35.909 E612.28613
G0 F3300 X110.4 Y35.909
G1 F675 X110.4 Y161.423 E634.82904
G0 F3300 X112.8 Y161.423
G1 F675 X112.8 Y35.908 E657.37213
G0 F3300 X115.2 Y35.908
G1 F675 X115.2 Y161.423 E679.91522
G0 F3300 X117.6 Y161.423
G1 F675 X117.6 Y35.908 E702.45831
G0 F3300 X120 Y35.908
G1 F675 X120 Y161.423 E725.00139
G0 F3300 X122.4 Y161.423
G1 F675 X122.4 Y35.908 E747.54448
G0 F3300 X124.8 Y35.908
G1 F675 X124.8 Y161.423 E770.08757
G0 F3300 X127.2 Y161.423
G1 F675 X127.2 Y35.908 E792.63066
G0 F3300 X129.6 Y36.084
G1 F675 X129.6 Y161.337 E815.12669
G0 F3300 X132 Y160.912
G1 F675 X132 Y36.592 E837.45515
G0 F3300 X134.4 Y37.476
G1 F675 X134.4 Y160.077 E859.47487
G0 F3300 X136.8 Y158.758
G1 F675 X136.8 Y38.803 E881.01935
G0 F3300 X139.2 Y40.73
G1 F675 X139.2 Y156.807 E901.86733
G0 F3300 X141.6 Y153.767
G1 F675 X141.6 Y43.565 E921.66013
G0 F3300 X144 Y48.067
G1 F675 X144 Y95.505 E930.18022
G0 F3300 X48 Y92.809
G1 F675 X48 Y48.906 E938.06541
G0 F3300 X50.4 Y44.176
G1 F675 X50.4 Y153.772 E957.74937
G0 F3300 X134.559 Y37.544
;TIME_ELAPSED:488.926605
;LAYER:-5
M140 S100
G0 X134.559 Y37.544 Z0.81
;TYPE:SUPPORT
G1 F675 X133.604 Y37.135 E957.9826
G1 X133.191 Y36.976 E958.08196
G1 X132.319 Y36.679 E958.28877
G1 X131.486 Y36.451 E958.48266
G1 X144.722 Y49.687 E962.68508
G1 X144.748 Y49.751 E962.70059
G1 X145.06 Y50.71 E962.927
G1 X145.115 Y50.901 E962.97163
G1 X145.32 Y51.744 E963.1664
G1 X145.356 Y51.92 E963.20673
G1 X145.432 Y52.376 E963.31052
G1 X129.068 Y36.012 E968.50608
G1 X129.034 Y36.007 E968.51379
G1 X128.76 Y35.981 E968.57558
G1 X127.324 Y35.908 E968.89839
G1 X126.984 Y35.909 E968.97472
G1 X145.627 Y54.552 E974.89386
G1 X145.632 Y54.713 E974.93002
G1 X145.632 Y56.537 E975.33952
G1 X125.004 Y35.909 E981.8889
G1 X123.024 Y35.909 E982.33342
G1 X145.618 Y58.503 E989.507
G1 X145.588 Y59.267 E989.67865
G1 X145.465 Y60.329 E989.91867
G1 X121.044 Y35.909 E997.67217
G1 X119.064 Y35.909 E998.11669
G1 X145.111 Y61.955 E1006.38643
G1 X145 Y62.37 E1006.48288
G1 X144.889 Y62.697 E1006.56041
G1 X144.709 Y63.362 E1006.71507
G1 X144.688 Y63.513 E1006.7493
G1 X117.084 Y35.909 E1015.51355
G1 X115.104 Y35.909 E1015.95807
G1 X144.597 Y65.401 E1025.32192
G1 X144.597 Y67.381 E1025.76644
G1 X113.125 Y35.909 E1035.75878
G1 X111.145 Y35.909 E1036.2033
G1 X144.597 Y69.361 E1046.82429
G1 X144.597 Y71.341 E1047.26881
G1 X109.165 Y35.909 E1058.51845
G1 X107.186 Y35.909 E1058.96274
G1 X144.596 Y73.32 E1070.84055
G1 X144.596 Y75.3 E1071.28507
G1 X105.206 Y35.909 E1083.79153
G1 X103.226 Y35.909 E1084.23605
G1 X144.596 Y77.28 E1097.37116
G1 X144.596 Y78.966 E1097.74967
G1 X144.616 Y79.28 E1097.82031
G1 X101.247 Y35.91 E1111.5901
G1 X99.267 Y35.91 E1112.03462
G1 X145.206 Y81.849 E1126.62022
G1 X145.398 Y82.727 E1126.82199
G1 X145.549 Y83.773 E1127.05926
G1 X145.579 Y84.202 E1127.15581
G1 X97.287 Y35.91 E1142.48849
G1 X95.307 Y35.91 E1142.93301
G1 X145.632 Y86.235 E1158.91116
G1 X145.632 Y88.215 E1159.35568
G1 X93.327 Y35.91 E1175.96248
G1 X91.347 Y35.91 E1176.40701
G1 X145.569 Y90.132 E1193.62245
G1 X145.463 Y91.044 E1193.82858
G1 X145.309 Y91.852 E1194.01325
G1 X89.368 Y35.911 E1211.77447
G1 X87.388 Y35.911 E1212.219
G1 X144.884 Y93.406 E1230.47378
G1 X144.643 Y94.099 E1230.6385
G1 X144.331 Y94.834 E1230.81776
G1 X85.408 Y35.911 E1249.52577
G1 X83.428 Y35.911 E1249.9703
G1 X143.658 Y96.141 E1269.09328
G1 X143.621 Y96.206 E1269.11007
G1 X143.598 Y96.198 E1269.11554
G1 X143.504 Y96.415 E1269.16863
G1 X143.387 Y96.624 E1269.2224
G1 X143.409 Y96.636 E1269.22803
G1 X143.165 Y97.2 E1269.36599
G1 X143.052 Y97.514 E1269.44091
G1 X81.448 Y35.911 E1288.99998
G1 X79.468 Y35.911 E1289.4445
G1 X142.721 Y99.163 E1309.52713
G1 X142.713 Y99.243 E1309.54518
G1 X142.739 Y99.952 E1309.70446
G1 X142.851 Y100.646 E1309.86228
G1 X142.989 Y101.138 E1309.977
G1 X143.123 Y101.545 E1310.0732
G1 X77.489 Y35.911 E1330.91195
G1 X75.509 Y35.911 E1331.35647
G1 X143.739 Y104.141 E1353.01945
G1 X143.83 Y104.761 E1353.16014
G1 X143.887 Y105.414 E1353.3073
G1 X143.919 Y106.301 E1353.50656
G1 X73.529 Y35.911 E1375.85534
G1 X71.55 Y35.911 E1376.29964
G1 X143.926 Y108.288 E1399.27912
G1 X143.926 Y110.268 E1399.72365
G1 X69.57 Y35.911 E1423.33178
G1 X67.59 Y35.911 E1423.7763
G1 X143.926 Y112.248 E1448.01309
G1 X143.926 Y114.228 E1448.45761
G1 X65.61 Y35.911 E1473.32305
G1 X65.026 Y35.911 E1473.45416
G1 X64.174 Y35.939 E1473.64554
G1 X63.701 Y35.982 E1473.75217
G1 X143.926 Y116.208 E1499.22371
G1 X143.926 Y118.187 E1499.66801
G1 X61.953 Y36.215 E1525.69422
G1 X61.857 Y36.23 E1525.71603
G1 X60.787 Y36.479 E1525.96267
G1 X60.391 Y36.588 E1526.05488
G1 X60.357 Y36.599 E1526.06291
G1 X143.926 Y120.167 E1552.59585
G1 X143.926 Y122.147 E1553.04037
G1 X58.884 Y37.105 E1580.04114
G1 X58.538 Y37.237 E1580.12428
G1 X58.201 Y37.382 E1580.20665
G1 X57.51 Y37.711 E1580.37847
G1 X143.926 Y124.127 E1607.81549
G1 X143.925 Y126.106 E1608.25979
G1 X56.227 Y38.408 E1636.10384
G1 X56.11 Y38.476 E1636.13422
G1 X55.717 Y38.723 E1636.23843
G1 X55.142 Y39.109 E1636.39391
G1 X55.032 Y39.193 E1636.42498
G1 X143.925 Y128.086 E1664.64845
G1 X143.925 Y130.066 E1665.09297
G1 X53.926 Y40.067 E1693.66759
G1 X53.245 Y40.665 E1693.87106
G1 X53.046 Y40.857 E1693.93314
G1 X52.893 Y41.013 E1693.9822
G1 X143.925 Y132.046 E1722.88495
G1 X143.925 Y134.026 E1723.32947
G1 X51.949 Y42.049 E1752.53195
G1 X51.716 Y42.321 E1752.61236
G1 X51.507 Y42.579 E1752.6869
G1 X51.081 Y43.161 E1752.84882
G1 X143.925 Y136.006 E1782.32689
G1 X143.925 Y137.986 E1782.77141
G1 X50.29 Y44.351 E1812.50046
G1 X50.169 Y44.549 E1812.55255
G1 X49.954 Y44.932 E1812.65116
G1 X49.595 Y45.635 E1812.82838
G1 X143.925 Y139.966 E1842.77824
G1 X143.925 Y141.946 E1843.22277
G1 X48.969 Y46.989 E1873.37139
G1 X48.728 Y47.465 E1873.49117
G1 X48.555 Y47.765 E1873.56892
G1 X48.287 Y48.287 E1873.70065
G1 X143.925 Y143.925 E1904.06565
G1 X143.925 Y145.54 E1904.42823
G1 X143.911 Y145.89 E1904.50687
G1 X47.683 Y49.662 E1935.05919
G1 X47.393 Y50.51 E1935.2604
G1 X47.217 Y51.176 E1935.41505
G1 X143.762 Y147.722 E1966.06818
G1 X143.759 Y147.747 E1966.07383
G1 X143.573 Y148.817 E1966.31766
G1 X143.435 Y149.375 E1966.44671
G1 X46.894 Y52.834 E1997.09841
G1 X46.801 Y53.73 E1997.30064
G1 X46.766 Y54.686 E1997.51542
G1 X142.974 Y150.894 E2028.06139
G1 X142.892 Y151.116 E2028.11452
G1 X142.477 Y152.126 E2028.35967
G1 X142.395 Y152.294 E2028.40164
G1 X46.765 Y56.664 E2058.7641
G1 X46.765 Y58.312 E2059.13408
G1 X46.77 Y58.65 E2059.20997
G1 X141.706 Y153.585 E2089.35193
G1 X141.513 Y153.914 E2089.43756
G1 X141.359 Y154.152 E2089.5012
G1 X140.927 Y154.786 E2089.67344
G1 X46.987 Y60.846 E2119.49933
G1 X46.999 Y60.926 E2119.51749
G1 X47.222 Y61.95 E2119.75277
G1 X47.694 Y63.533 E2120.12363
G1 X140.049 Y155.888 E2149.44627
G1 X139.824 Y156.161 E2149.5257
G1 X139.694 Y156.303 E2149.56892
G1 X139.094 Y156.914 E2149.76117
G1 X47.799 Y65.618 E2178.74743
G1 X47.799 Y67.598 E2179.19195
G1 X138.047 Y157.846 E2207.84563
G1 X137.528 Y158.247 E2207.99288
G1 X137.245 Y158.453 E2208.07146
G1 X136.905 Y158.684 E2208.16374
G1 X47.799 Y69.578 E2236.45484
G1 X47.799 Y71.558 E2236.89936
G1 X135.683 Y159.442 E2264.80247
G1 X135.582 Y159.501 E2264.82873
G1 X135.425 Y159.585 E2264.8687
G1 X134.522 Y160.021 E2265.09383
G1 X134.355 Y160.094 E2265.13474
G1 X47.799 Y73.538 E2292.61621
G1 X47.799 Y75.518 E2293.06074
G1 X132.914 Y160.632 E2320.08453
G1 X132.016 Y160.907 E2320.29538
G1 X131.355 Y161.054 E2320.4474
G1 X47.799 Y77.498 E2346.97637
G1 X47.8 Y79.478 E2347.4209
G1 X129.652 Y161.33 E2373.40885
G1 X129.039 Y161.388 E2373.54709
G1 X128.868 Y161.399 E2373.58556
