;FLAVOR:RepRap
;TIME:10029
;Filament used: 17.9963m
;Layer height: 0.3
;Generated with Cura_SteamEngine 4.0.0
T0
M104 S230
M109 S230
M82 ;absolute extrusion mode
G28 ;Home
G1 Z15.0 F6000 ;Move the platform down 15mm
;Prime the extruder
G92 E0
G1 F200 E3
G92 E0
M83 ;relative extrusion mode
G1 F1500 E-6.5
;LAYER_COUNT:69
;LAYER:0
M107
G0 F1950 X60.723 Y49.355 Z0.3
;TYPE:SKIRT
G1 F1500 E6.5
G1 F1350 X61.259 Y48.754 E0.06026
G1 X61.852 Y48.21 E0.06022
G1 X62.169 Y47.96 E0.03021
G1 X62.552 Y47.673 E0.03582
G1 X63.219 Y47.223 E0.06021
G1 X64.143 Y46.743 E0.07792
G1 X64.926 Y46.398 E0.06403
G1 X65.678 Y46.11 E0.06026
G1 X66.454 Y45.899 E0.06018
G1 X66.937 Y45.808 E0.03678
G1 X67.632 Y45.699 E0.05265
G1 X68.432 Y45.614 E0.06021
G1 X68.887 Y45.601 E0.03406
G1 X131.088 Y45.6 E4.65483
G1 X131.892 Y45.64 E0.06024
G1 X132.542 Y45.732 E0.04913
G1 X133.43 Y45.894 E0.06755
G1 X134.213 Y46.077 E0.06018
G1 X134.975 Y46.338 E0.06028
G1 X135.727 Y46.683 E0.06192
G1 X136.527 Y47.101 E0.06755
G1 X137.221 Y47.509 E0.06025
G1 X137.871 Y47.983 E0.0602
G1 X138.383 Y48.434 E0.05106
G1 X138.947 Y48.975 E0.05849
G1 X139.499 Y49.561 E0.06025
G1 X140.067 Y50.309 E0.07029
G1 X140.348 Y50.728 E0.03775
G1 X140.763 Y51.418 E0.06026
G1 X141.129 Y52.199 E0.06455
G1 X141.402 Y52.873 E0.05442
G1 X141.666 Y53.633 E0.06021
G1 X141.903 Y54.703 E0.08201
G1 X142.007 Y55.391 E0.05207
G1 X142.088 Y56.192 E0.06025
G1 X142.098 Y56.611 E0.03136
G1 X142.057 Y94.214 E2.81403
G1 X142.016 Y95.018 E0.06025
G1 X141.896 Y95.813 E0.06017
G1 X141.628 Y96.805 E0.0769
G1 X141.327 Y97.693 E0.07017
G1 X141.031 Y98.442 E0.06027
G1 X140.663 Y99.157 E0.06018
G1 X140.174 Y99.902 E0.06669
G1 X139.869 Y100.315 E0.03842
G1 X140.309 Y100.933 E0.05677
G1 X140.709 Y101.631 E0.0602
G1 X141.099 Y102.531 E0.0734
G1 X141.327 Y103.158 E0.04993
G1 X141.564 Y103.927 E0.06022
G1 X141.724 Y104.716 E0.06025
G1 X141.805 Y105.516 E0.06017
G1 X141.815 Y105.926 E0.03069
G1 X141.814 Y145.307 E2.94709
G1 X141.774 Y146.111 E0.06024
G1 X141.654 Y146.907 E0.06024
G1 X141.483 Y147.6 E0.05342
G1 X141.341 Y148.081 E0.03753
G1 X141.075 Y148.841 E0.06026
G1 X140.735 Y149.57 E0.0602
G1 X140.192 Y150.456 E0.07777
G1 X139.905 Y150.863 E0.03727
G1 X139.409 Y151.497 E0.06024
G1 X138.853 Y152.078 E0.06018
G1 X138.142 Y152.677 E0.06957
G1 X137.779 Y152.949 E0.03395
G1 X137.112 Y153.399 E0.06021
G1 X136.403 Y153.781 E0.06027
G1 X135.755 Y154.055 E0.05265
G1 X135.372 Y154.198 E0.03059
G1 X134.605 Y154.442 E0.06023
G1 X133.818 Y154.608 E0.06019
G1 X133.018 Y154.696 E0.06023
G1 X132.543 Y154.71 E0.03556
G1 X68.087 Y154.742 E4.82358
G1 X67.283 Y154.702 E0.06024
G1 X66.487 Y154.583 E0.06023
G1 X66.072 Y154.488 E0.03186
G1 X65.557 Y154.356 E0.03979
G1 X64.788 Y154.118 E0.06024
G1 X64.047 Y153.805 E0.0602
G1 X63.341 Y153.419 E0.06021
G1 X62.555 Y152.873 E0.07162
G1 X61.98 Y152.42 E0.05478
G1 X61.374 Y151.891 E0.0602
G1 X60.823 Y151.304 E0.06025
G1 X60.332 Y150.666 E0.06025
G1 X59.806 Y149.792 E0.07634
G1 X59.555 Y149.309 E0.04073
G1 X59.219 Y148.577 E0.06027
G1 X58.959 Y147.816 E0.06018
G1 X58.8 Y147.168 E0.04993
G1 X58.739 Y146.864 E0.0232
G1 X58.62 Y146.068 E0.06023
G1 X58.581 Y145.267 E0.06001
G1 X58.594 Y105.862 E2.94889
G1 X58.634 Y105.059 E0.06017
G1 X58.754 Y104.263 E0.06024
G1 X58.952 Y103.483 E0.06022
G1 X59.09 Y103.075 E0.03223
G1 X59.283 Y102.549 E0.04193
G1 X59.597 Y101.808 E0.06023
G1 X59.983 Y101.102 E0.06021
G1 X60.335 Y100.589 E0.04656
G1 X59.884 Y99.99 E0.05611
G1 X59.433 Y99.323 E0.06025
G1 X59.051 Y98.615 E0.0602
G1 X58.704 Y97.772 E0.06822
G1 X58.394 Y96.877 E0.07088
G1 X58.169 Y96.105 E0.06018
G1 X58.021 Y95.313 E0.0603
G1 X57.948 Y94.226 E0.08153
G1 X57.946 Y56.179 E2.84726
G1 X57.986 Y55.376 E0.06017
G1 X58.105 Y54.58 E0.06023
G1 X58.401 Y53.504 E0.08351
G1 X58.724 Y52.581 E0.07318
G1 X59.027 Y51.835 E0.06026
G1 X59.403 Y51.123 E0.06026
G1 X60.066 Y50.169 E0.08694
G1 X60.723 Y49.355 E0.07828
G0 F1950 X61.19 Y49.731
G1 F1350 X61.707 Y49.155 E0.05792
G1 X62.529 Y48.44 E0.08153
G1 X62.912 Y48.153 E0.03582
G1 X63.554 Y47.721 E0.05791
G1 X64.385 Y47.292 E0.06999
G1 X65.168 Y46.947 E0.06403
G1 X65.892 Y46.671 E0.05798
G1 X66.64 Y46.472 E0.05792
G1 X67.03 Y46.401 E0.02967
G1 X67.725 Y46.292 E0.05265
G1 X68.495 Y46.211 E0.05794
G1 X68.887 Y46.201 E0.02934
G1 X131.088 Y46.2 E4.65483
G1 X131.861 Y46.24 E0.05793
G1 X132.434 Y46.322 E0.04332
G1 X133.322 Y46.484 E0.06755
G1 X134.076 Y46.662 E0.05798
G1 X134.807 Y46.917 E0.05794
G1 X135.449 Y47.215 E0.05297
G1 X136.249 Y47.633 E0.06755
G1 X136.916 Y48.026 E0.05794
G1 X137.539 Y48.486 E0.05795
G1 X137.968 Y48.867 E0.04294
G1 X138.532 Y49.408 E0.05849
G1 X139.062 Y49.973 E0.05797
G1 X139.569 Y50.644 E0.06294
G1 X139.85 Y51.063 E0.03775
G1 X140.247 Y51.727 E0.05789
G1 X140.572 Y52.424 E0.05755
G1 X140.845 Y53.098 E0.05442
G1 X141.099 Y53.83 E0.05798
G1 X141.31 Y54.793 E0.07378
G1 X141.414 Y55.481 E0.05207
G1 X141.498 Y56.61 E0.08472
G1 X141.457 Y94.213 E2.81403
G1 X141.416 Y94.986 E0.05793
G1 X141.296 Y95.751 E0.05795
G1 X141.06 Y96.613 E0.06688
G1 X140.759 Y97.501 E0.07017
G1 X140.473 Y98.22 E0.05791
G1 X140.114 Y98.906 E0.05794
G1 X139.691 Y99.546 E0.05741
G1 X139.145 Y100.286 E0.06882
G1 X139.101 Y100.34 E0.00521
G1 X139.39 Y100.672 E0.03294
G1 X139.835 Y101.305 E0.05791
G1 X140.213 Y101.981 E0.05796
G1 X140.535 Y102.736 E0.06142
G1 X140.763 Y103.363 E0.04993
G1 X140.99 Y104.103 E0.05793
G1 X141.139 Y104.863 E0.05796
G1 X141.215 Y105.926 E0.07975
G1 X141.214 Y145.307 E2.94709
G1 X141.174 Y146.08 E0.05793
G1 X141.054 Y146.846 E0.05802
G1 X140.907 Y147.431 E0.04514
G1 X140.765 Y147.912 E0.03753
G1 X140.508 Y148.642 E0.05792
G1 X140.177 Y149.342 E0.05795
G1 X139.701 Y150.11 E0.06762
G1 X139.414 Y150.517 E0.03727
G1 X138.936 Y151.126 E0.05794
G1 X138.397 Y151.682 E0.05795
G1 X137.782 Y152.197 E0.06003
G1 X137.419 Y152.469 E0.03395
G1 X136.777 Y152.901 E0.05791
G1 X136.093 Y153.264 E0.05795
G1 X135.545 Y153.493 E0.04445
G1 X135.162 Y153.636 E0.03059
G1 X134.424 Y153.869 E0.05792
G1 X133.665 Y154.025 E0.05799
G1 X132.543 Y154.11 E0.08421
G1 X68.087 Y154.142 E4.82358
G1 X67.313 Y154.102 E0.058
G1 X66.221 Y153.907 E0.08301
G1 X65.706 Y153.775 E0.03979
G1 X64.967 Y153.544 E0.05794
G1 X64.255 Y153.239 E0.05797
G1 X63.579 Y152.861 E0.05796
G1 X62.927 Y152.401 E0.05971
G1 X62.352 Y151.948 E0.05478
G1 X61.769 Y151.438 E0.05797
G1 X61.242 Y150.871 E0.05793
G1 X60.776 Y150.252 E0.05798
G1 X60.338 Y149.515 E0.06416
G1 X60.087 Y149.032 E0.04073
G1 X59.766 Y148.328 E0.0579
G1 X59.519 Y147.594 E0.05796
G1 X59.389 Y147.05 E0.04186
G1 X59.328 Y146.746 E0.0232
G1 X59.215 Y145.979 E0.05802
G1 X59.181 Y145.268 E0.05327
G1 X59.194 Y105.863 E2.94889
G1 X59.234 Y105.089 E0.058
G1 X59.354 Y104.324 E0.05795
G1 X59.653 Y103.282 E0.08113
G1 X59.846 Y102.756 E0.04193
G1 X60.15 Y102.043 E0.05801
G1 X60.526 Y101.366 E0.05795
G1 X60.969 Y100.731 E0.05794
G1 X61.095 Y100.585 E0.01443
G1 X60.907 Y100.351 E0.02246
G1 X60.364 Y99.629 E0.06761
G1 X59.931 Y98.987 E0.05795
G1 X59.567 Y98.304 E0.05792
G1 X59.271 Y97.576 E0.05881
G1 X58.961 Y96.681 E0.07088
G1 X58.746 Y95.937 E0.05796
G1 X58.608 Y95.175 E0.05795
G1 X58.548 Y94.226 E0.07116
G1 X58.546 Y56.179 E2.84726
G1 X58.586 Y55.406 E0.05793
G1 X58.705 Y54.641 E0.05794
G1 X58.967 Y53.702 E0.07295
G1 X59.29 Y52.779 E0.07318
G1 X59.583 Y52.062 E0.05796
G1 X59.949 Y51.379 E0.05799
G1 X60.533 Y50.545 E0.07619
G1 X61.19 Y49.731 E0.07828
G0 F1950 X61.657 Y50.108
G1 F1350 X62.154 Y49.556 E0.05559
G1 X62.888 Y48.92 E0.07268
G1 X63.271 Y48.633 E0.03582
G1 X63.889 Y48.221 E0.05558
G1 X64.627 Y47.841 E0.06212
G1 X65.41 Y47.496 E0.06403
G1 X66.105 Y47.233 E0.05561
G1 X67.123 Y46.993 E0.07827
G1 X67.818 Y46.884 E0.05265
G1 X68.887 Y46.801 E0.08024
G1 X131.088 Y46.8 E4.65483
G1 X131.83 Y46.84 E0.05561
G1 X132.326 Y46.912 E0.03751
G1 X133.214 Y47.074 E0.06755
G1 X133.937 Y47.246 E0.05562
G1 X134.636 Y47.496 E0.05555
G1 X135.171 Y47.746 E0.04419
G1 X135.971 Y48.164 E0.06755
G1 X136.61 Y48.543 E0.0556
G1 X137.205 Y48.989 E0.05565
G1 X137.552 Y49.3 E0.03487
G1 X138.116 Y49.841 E0.05849
G1 X138.624 Y50.384 E0.05565
G1 X139.071 Y50.978 E0.05563
G1 X139.352 Y51.397 E0.03775
G1 X139.731 Y52.035 E0.05553
G1 X140.016 Y52.65 E0.05073
G1 X140.289 Y53.324 E0.05442
G1 X140.531 Y54.026 E0.05557
G1 X140.716 Y54.883 E0.06561
G1 X140.82 Y55.571 E0.05207
G1 X140.898 Y56.61 E0.07797
G1 X140.857 Y94.213 E2.81403
G1 X140.816 Y94.954 E0.05554
G1 X140.696 Y95.687 E0.05558
G1 X140.492 Y96.42 E0.05694
G1 X140.191 Y97.308 E0.07017
G1 X139.915 Y97.998 E0.05561
G1 X139.566 Y98.653 E0.05554
G1 X139.208 Y99.19 E0.0483
G1 X138.662 Y99.93 E0.06882
G1 X138.309 Y100.359 E0.04158
G1 X138.45 Y100.505 E0.01519
G1 X138.936 Y101.066 E0.05555
G1 X139.36 Y101.676 E0.05559
G1 X139.715 Y102.329 E0.05562
G1 X139.972 Y102.941 E0.04967
G1 X140.2 Y103.568 E0.04993
G1 X140.415 Y104.279 E0.05559
G1 X140.554 Y105.008 E0.05554
G1 X140.615 Y105.926 E0.06885
G1 X140.614 Y145.307 E2.94709
G1 X140.574 Y146.049 E0.05561
G1 X140.455 Y146.782 E0.05557
G1 X140.332 Y147.261 E0.03701
G1 X140.19 Y147.742 E0.03753
G1 X139.941 Y148.442 E0.0556
G1 X139.619 Y149.111 E0.05556
G1 X139.211 Y149.764 E0.05762
G1 X138.924 Y150.171 E0.03727
G1 X138.464 Y150.754 E0.05557
G1 X137.944 Y151.285 E0.05562
G1 X137.423 Y151.717 E0.05065
G1 X137.06 Y151.989 E0.03395
G1 X136.442 Y152.402 E0.05562
G1 X135.784 Y152.746 E0.05556
G1 X135.336 Y152.931 E0.03627
G1 X134.953 Y153.074 E0.03059
G1 X134.244 Y153.296 E0.0556
G1 X133.515 Y153.441 E0.05562
G1 X132.542 Y153.51 E0.073
G1 X68.086 Y153.542 E4.82358
G1 X67.345 Y153.502 E0.05553
G1 X66.37 Y153.326 E0.07414
G1 X65.855 Y153.194 E0.03979
G1 X65.146 Y152.971 E0.05562
G1 X64.466 Y152.673 E0.05556
G1 X63.821 Y152.304 E0.05561
G1 X63.298 Y151.93 E0.04812
G1 X62.723 Y151.477 E0.05478
G1 X62.165 Y150.987 E0.05557
G1 X61.663 Y150.439 E0.05562
G1 X61.223 Y149.841 E0.05556
G1 X60.87 Y149.239 E0.05222
G1 X60.619 Y148.756 E0.04073
G1 X60.313 Y148.079 E0.0556
G1 X60.081 Y147.374 E0.05554
G1 X59.977 Y146.931 E0.03405
G1 X59.916 Y146.627 E0.0232
G1 X59.809 Y145.892 E0.05558
G1 X59.781 Y145.268 E0.04674
G1 X59.794 Y105.863 E2.94889
G1 X59.834 Y105.121 E0.05561
G1 X59.954 Y104.388 E0.05558
G1 X60.216 Y103.488 E0.07015
G1 X60.409 Y102.962 E0.04193
G1 X60.702 Y102.28 E0.05555
G1 X61.067 Y101.633 E0.05559
G1 X61.499 Y101.029 E0.05557
G1 X61.875 Y100.596 E0.04292
G1 X61.9 Y100.569 E0.00275
G1 X61.387 Y99.99 E0.05789
G1 X60.844 Y99.268 E0.06761
G1 X60.43 Y98.652 E0.05554
G1 X60.085 Y97.994 E0.0556
G1 X59.838 Y97.379 E0.0496
G1 X59.528 Y96.484 E0.07088
G1 X59.323 Y95.77 E0.05559
G1 X59.196 Y95.039 E0.05552
G1 X59.148 Y94.226 E0.06095
G1 X59.146 Y56.179 E2.84726
G1 X59.186 Y55.438 E0.05553
G1 X59.305 Y54.705 E0.05557
G1 X59.533 Y53.9 E0.06261
G1 X59.856 Y52.977 E0.07318
G1 X60.139 Y52.29 E0.0556
G1 X60.494 Y51.638 E0.05556
G1 X61 Y50.922 E0.06561
G1 X61.657 Y50.108 E0.07828
G0 F1950 X62.124 Y50.485
G1 F1350 X62.6 Y49.959 E0.05309
G1 X63.248 Y49.4 E0.06404
G1 X63.631 Y49.113 E0.03582
G1 X64.222 Y48.721 E0.05307
G1 X64.869 Y48.39 E0.05439
G1 X65.652 Y48.045 E0.06403
G1 X66.316 Y47.796 E0.05307
G1 X67.216 Y47.586 E0.06916
G1 X67.911 Y47.477 E0.05265
G1 X68.887 Y47.401 E0.07326
G1 X131.088 Y47.4 E4.65483
G1 X131.796 Y47.44 E0.05307
G1 X132.219 Y47.502 E0.03199
G1 X133.107 Y47.664 E0.06755
G1 X133.797 Y47.831 E0.05313
G1 X134.463 Y48.074 E0.05305
G1 X134.894 Y48.278 E0.03568
G1 X135.694 Y48.696 E0.06755
G1 X136.303 Y49.06 E0.05309
G1 X136.868 Y49.49 E0.05313
G1 X137.137 Y49.733 E0.02713
G1 X137.701 Y50.274 E0.05849
G1 X138.185 Y50.794 E0.05316
G1 X138.572 Y51.312 E0.04839
G1 X138.853 Y51.731 E0.03775
G1 X139.215 Y52.342 E0.05315
G1 X139.46 Y52.875 E0.0439
G1 X139.733 Y53.549 E0.05442
G1 X139.962 Y54.221 E0.05313
G1 X140.123 Y54.972 E0.05748
G1 X140.227 Y55.66 E0.05207
G1 X140.298 Y56.609 E0.07122
G1 X140.257 Y94.212 E2.81403
G1 X140.216 Y94.92 E0.05307
G1 X140.096 Y95.62 E0.05315
G1 X139.924 Y96.227 E0.04721
G1 X139.623 Y97.115 E0.07017
G1 X139.357 Y97.774 E0.05318
G1 X139.02 Y98.398 E0.05307
G1 X138.725 Y98.833 E0.03933
G1 X138.179 Y99.573 E0.06882
G1 X137.727 Y100.12 E0.0531
G1 X137.466 Y100.37 E0.02705
G1 X137.592 Y100.481 E0.01257
G1 X138.018 Y100.922 E0.04589
G1 X138.482 Y101.459 E0.05311
G1 X138.882 Y102.045 E0.0531
G1 X139.214 Y102.673 E0.05316
G1 X139.408 Y103.146 E0.03826
G1 X139.636 Y103.773 E0.04993
G1 X139.84 Y104.453 E0.05313
G1 X139.967 Y105.151 E0.05309
G1 X140.015 Y105.926 E0.05811
G1 X140.014 Y145.307 E2.94709
G1 X139.974 Y146.016 E0.05314
G1 X139.855 Y146.715 E0.05306
G1 X139.756 Y147.091 E0.0291
G1 X139.614 Y147.572 E0.03753
G1 X139.375 Y148.24 E0.05309
G1 X139.063 Y148.877 E0.05308
G1 X138.721 Y149.419 E0.04796
G1 X138.434 Y149.826 E0.03727
G1 X137.993 Y150.382 E0.05311
G1 X137.492 Y150.885 E0.05313
G1 X137.063 Y151.237 E0.04153
G1 X136.7 Y151.509 E0.03395
G1 X136.109 Y151.902 E0.05311
G1 X135.477 Y152.225 E0.05311
G1 X135.126 Y152.369 E0.02839
G1 X134.743 Y152.512 E0.03059
G1 X134.065 Y152.722 E0.05312
G1 X133.368 Y152.855 E0.0531
G1 X132.542 Y152.91 E0.06195
G1 X68.086 Y152.942 E4.82358
G1 X67.378 Y152.902 E0.05307
G1 X66.519 Y152.745 E0.06535
G1 X66.004 Y152.613 E0.03979
G1 X65.327 Y152.398 E0.05316
G1 X64.679 Y152.109 E0.0531
G1 X64.068 Y151.748 E0.05311
G1 X63.669 Y151.459 E0.03687
G1 X63.094 Y151.006 E0.05478
G1 X62.562 Y150.536 E0.05312
G1 X62.087 Y150.009 E0.05309
G1 X61.673 Y149.432 E0.05314
G1 X61.403 Y148.962 E0.04056
G1 X61.152 Y148.479 E0.04073
G1 X60.861 Y147.832 E0.05309
G1 X60.565 Y146.813 E0.07941
G1 X60.504 Y146.509 E0.0232
G1 X60.404 Y145.807 E0.05306
G1 X60.381 Y145.268 E0.04037
G1 X60.394 Y105.863 E2.94889
G1 X60.434 Y105.154 E0.05314
G1 X60.554 Y104.455 E0.05308
G1 X60.78 Y103.695 E0.05934
G1 X60.973 Y103.169 E0.04193
G1 X61.254 Y102.517 E0.05313
G1 X61.607 Y101.902 E0.05307
G1 X62.027 Y101.33 E0.05311
G1 X62.311 Y101.009 E0.03207
G1 X62.738 Y100.558 E0.04648
G1 X62.517 Y100.367 E0.02186
G1 X61.866 Y99.63 E0.07359
G1 X61.323 Y98.908 E0.06761
G1 X60.929 Y98.317 E0.05316
G1 X60.604 Y97.687 E0.05305
G1 X60.405 Y97.183 E0.04055
G1 X60.095 Y96.288 E0.07088
G1 X59.901 Y95.605 E0.05313
G1 X59.785 Y94.905 E0.0531
G1 X59.748 Y94.226 E0.05089
G1 X59.746 Y56.179 E2.84726
G1 X59.786 Y55.471 E0.05307
G1 X59.905 Y54.771 E0.05314
G1 X60.1 Y54.098 E0.05244
G1 X60.423 Y53.175 E0.07318
G1 X60.694 Y52.52 E0.05305
G1 X61.038 Y51.899 E0.05313
G1 X61.467 Y51.299 E0.0552
G1 X62.124 Y50.485 E0.07828
G0 F1950 X62.591 Y50.862
G1 F1350 X63.045 Y50.363 E0.05049
G1 X63.608 Y49.881 E0.05546
G1 X63.991 Y49.594 E0.03582
G1 X64.554 Y49.222 E0.0505
G1 X65.111 Y48.939 E0.04675
G1 X65.894 Y48.594 E0.06403
G1 X66.526 Y48.359 E0.05046
G1 X67.309 Y48.179 E0.06012
G1 X68.004 Y48.07 E0.05265
G1 X68.887 Y48.001 E0.06628
G1 X131.088 Y48 E4.65483
G1 X131.762 Y48.04 E0.05053
G1 X132.111 Y48.093 E0.02642
G1 X132.999 Y48.255 E0.06755
G1 X133.655 Y48.415 E0.05053
G1 X134.287 Y48.651 E0.05049
G1 X134.616 Y48.81 E0.02735
G1 X135.416 Y49.228 E0.06755
G1 X135.994 Y49.575 E0.05045
G1 X136.722 Y50.166 E0.07017
G1 X137.286 Y50.707 E0.05849
G1 X137.744 Y51.203 E0.05052
G1 X138.074 Y51.646 E0.04134
G1 X138.355 Y52.065 E0.03775
G1 X138.697 Y52.647 E0.05052
G1 X138.904 Y53.1 E0.03727
G1 X139.177 Y53.774 E0.05442
G1 X139.393 Y54.414 E0.05055
G1 X139.53 Y55.062 E0.04957
G1 X139.634 Y55.75 E0.05207
G1 X139.698 Y56.608 E0.06439
G1 X139.657 Y94.211 E2.81403
G1 X139.616 Y94.885 E0.05053
G1 X139.496 Y95.549 E0.0505
G1 X139.355 Y96.035 E0.03787
G1 X139.054 Y96.923 E0.07017
G1 X138.8 Y97.548 E0.05049
G1 X138.474 Y98.139 E0.05051
G1 X138.243 Y98.477 E0.03064
G1 X137.697 Y99.217 E0.06882
G1 X137.264 Y99.736 E0.05058
G1 X136.774 Y100.199 E0.05045
G1 X136.562 Y100.364 E0.0201
G1 X137.161 Y100.898 E0.06005
G1 X137.587 Y101.339 E0.04589
G1 X138.026 Y101.851 E0.05047
G1 X138.402 Y102.412 E0.05054
G1 X138.709 Y103.013 E0.0505
G1 X138.844 Y103.351 E0.02724
G1 X139.072 Y103.978 E0.04993
G1 X139.265 Y104.625 E0.05053
G1 X139.379 Y105.29 E0.05049
G1 X139.415 Y105.926 E0.04767
G1 X139.414 Y145.307 E2.94709
G1 X139.374 Y145.981 E0.05053
G1 X139.181 Y146.921 E0.07181
G1 X139.039 Y147.402 E0.03753
G1 X138.81 Y148.037 E0.05052
