;FLAVOR:RepRap
;TIME:6795
;Filament used: 3.45501m
;Layer height: 0.16
;Generated with Cura_SteamEngine 4.0.0
T0
M190 S55
M104 S215
M109 S215
M82 ;absolute extrusion mode
G28 ;Home
G1 Z15.0 F6000 ;Move the platform down 15mm
;Prime the extruder
G92 E0
G1 F200 E3
G92 E0
M83 ;relative extrusion mode
G1 F1500 E-2
;LAYER_COUNT:275
;LAYER:0
M107
G0 F1950 X75.129 Y84.447 Z0.2
;TYPE:SKIRT
G1 F1500 E2
G1 F1350 X75.34 Y84.273 E0.00682
G1 X75.888 Y83.858 E0.01715
G1 X76.33 Y83.573 E0.01312
G1 X76.809 Y83.36 E0.01308
G1 X77.93 Y82.959 E0.0297
G1 X78.436 Y82.82 E0.01309
G1 X79.086 Y82.757 E0.01629
G1 X81.482 Y82.753 E0.05977
G1 X82.005 Y82.792 E0.01308
G1 X88.73 Y83.811 E0.16967
G1 X94.15 Y84.294 E0.13574
G1 X99.609 Y84.471 E0.13625
G1 X105.067 Y84.338 E0.13619
G1 X110.506 Y83.898 E0.13612
G1 X118.157 Y82.77 E0.19292
G1 X118.636 Y82.733 E0.01198
G1 X120.504 Y82.72 E0.0466
G1 X120.941 Y82.745 E0.01092
G1 X121.463 Y82.808 E0.01312
G1 X122.109 Y82.95 E0.0165
G1 X122.735 Y83.152 E0.01641
G1 X123.221 Y83.35 E0.01309
G1 X123.596 Y83.569 E0.01083
G1 X124.571 Y84.222 E0.02927
G1 X124.984 Y84.546 E0.01309
G1 X125.355 Y84.945 E0.01359
G1 X125.821 Y85.533 E0.01872
G1 X126.115 Y85.968 E0.0131
G1 X126.237 Y86.203 E0.0066
G1 X126.517 Y86.796 E0.01636
G1 X126.764 Y87.518 E0.01904
G1 X126.941 Y88.312 E0.02029
G1 X127.024 Y89.06 E0.01877
G1 X127.043 Y111.624 E0.56286
G1 X127.035 Y111.864 E0.00599
G1 X126.961 Y112.938 E0.02685
G1 X126.885 Y113.458 E0.01311
G1 X126.679 Y114.086 E0.01649
G1 X126.516 Y114.458 E0.01013
G1 X126.269 Y114.921 E0.01309
G1 X125.99 Y115.301 E0.01176
G1 X125.694 Y115.651 E0.01143
G1 X125.326 Y116.025 E0.01309
G1 X124.909 Y116.336 E0.01298
G1 X124.46 Y116.621 E0.01327
G1 X123.997 Y116.868 E0.01309
G1 X123.444 Y117.056 E0.01457
G1 X122.99 Y117.169 E0.01167
G1 X122.473 Y117.257 E0.01308
G1 X122.158 Y117.271 E0.00787
G1 X77.887 Y117.278 E1.10434
G1 X77.156 Y117.2 E0.01834
G1 X76.722 Y117.106 E0.01108
G1 X76.219 Y116.956 E0.01309
G1 X75.531 Y116.6 E0.01932
G1 X74.903 Y116.179 E0.01886
G1 X74.49 Y115.854 E0.01311
G1 X74.074 Y115.397 E0.01542
G1 X73.905 Y115.174 E0.00698
G1 X73.621 Y114.732 E0.01311
G1 X73.39 Y114.204 E0.01438
G1 X73.159 Y113.527 E0.01784
G1 X73.028 Y113.019 E0.01309
G1 X72.974 Y112.409 E0.01528
G1 X73.004 Y88.87 E0.58718
G1 X73.045 Y88.346 E0.01311
G1 X73.1 Y88.067 E0.00709
G1 X73.232 Y87.518 E0.01409
G1 X73.472 Y86.841 E0.01792
G1 X73.798 Y86.157 E0.0189
G1 X74.059 Y85.701 E0.01311
G1 X74.253 Y85.443 E0.00805
G1 X74.764 Y84.825 E0.02
G1 X75.129 Y84.447 E0.01311
G0 F1950 X75.521 Y84.512
G1 F1350 X76.069 Y84.097 E0.01715
G1 X76.492 Y83.827 E0.01252
G1 X76.91 Y83.642 E0.0114
G1 X78.031 Y83.241 E0.0297
G1 X78.515 Y83.11 E0.01251
G1 X79.087 Y83.057 E0.01433
G1 X81.483 Y83.053 E0.05977
G1 X81.96 Y83.089 E0.01193
G1 X88.674 Y84.106 E0.16939
G1 X94.15 Y84.594 E0.13714
G1 X99.607 Y84.771 E0.1362
G1 X105.081 Y84.638 E0.13659
G1 X110.543 Y84.196 E0.1367
G1 X118.201 Y83.067 E0.19309
G1 X118.638 Y83.033 E0.01093
G1 X120.506 Y83.02 E0.0466
G1 X120.905 Y83.043 E0.00997
G1 X121.427 Y83.106 E0.01312
G1 X122.017 Y83.235 E0.01507
G1 X122.643 Y83.437 E0.01641
G1 X123.107 Y83.629 E0.01253
G1 X123.429 Y83.818 E0.00931
G1 X124.404 Y84.471 E0.02927
G1 X124.797 Y84.782 E0.0125
G1 X125.12 Y85.131 E0.01186
G1 X125.586 Y85.719 E0.01872
G1 X125.965 Y86.331 E0.01796
G1 X126.245 Y86.924 E0.01636
G1 X126.472 Y87.584 E0.01741
G1 X126.649 Y88.378 E0.02029
G1 X126.724 Y89.06 E0.01712
G1 X126.743 Y111.624 E0.56286
G1 X126.736 Y111.844 E0.00549
G1 X126.662 Y112.918 E0.02685
G1 X126.587 Y113.414 E0.01251
G1 X126.404 Y113.965 E0.01448
G1 X126.241 Y114.337 E0.01013
G1 X126.004 Y114.779 E0.01251
G1 X125.761 Y115.107 E0.01018
G1 X125.465 Y115.457 E0.01143
G1 X125.112 Y115.813 E0.01251
G1 X124.748 Y116.082 E0.01129
G1 X124.299 Y116.367 E0.01327
G1 X123.856 Y116.602 E0.01251
G1 X123.372 Y116.765 E0.01274
G1 X122.918 Y116.878 E0.01167
G1 X122.423 Y116.96 E0.01252
G1 X122.157 Y116.971 E0.00664
G1 X77.886 Y116.978 E1.10434
G1 X77.219 Y116.907 E0.01673
G1 X76.785 Y116.813 E0.01108
G1 X76.305 Y116.668 E0.01251
G1 X75.698 Y116.35 E0.01709
G1 X75.07 Y115.929 E0.01886
G1 X74.677 Y115.618 E0.0125
G1 X74.313 Y115.216 E0.01353
G1 X74.144 Y114.993 E0.00698
G1 X73.874 Y114.57 E0.01252
G1 X73.674 Y114.107 E0.01258
G1 X73.443 Y113.43 E0.01784
G1 X73.319 Y112.944 E0.01251
G1 X73.274 Y112.409 E0.01339
G1 X73.304 Y88.87 E0.58718
G1 X73.391 Y88.138 E0.01839
G1 X73.523 Y87.589 E0.01409
G1 X73.742 Y86.97 E0.01638
G1 X74.068 Y86.286 E0.0189
G1 X74.32 Y85.852 E0.01252
G1 X74.484 Y85.634 E0.00681
G1 X74.995 Y85.016 E0.02
G1 X75.521 Y84.512 E0.01817
G1 F1500 E-2
;MESH:Magnet Clip.STL
G0 F1950 X75.802 Y89.075
G0 X76.877 Y89.202
G0 X77.307 Y91.43
;TYPE:WALL-INNER
G1 F1500 E2
G1 F1350 X77.158 Y92.121 E0.01763
G1 X77.158 Y91.43 E0.00422
G1 X77.158 Y91.185 E0.00611
G1 X77.158 Y91.067 E0.00294
G1 X77.158 Y89.212 E0.04627
G1 X77.172 Y89.038 E0.00435
G1 X77.196 Y88.888 E0.00379
G1 X77.245 Y88.679 E0.00535
G1 X77.301 Y88.507 E0.00451
G1 X77.388 Y88.297 E0.00567
G1 X77.464 Y88.148 E0.00417
G1 X77.571 Y87.973 E0.00512
G1 X77.679 Y87.827 E0.00453
G1 X77.783 Y87.706 E0.00398
G1 X77.965 Y87.525 E0.0064
G1 X78.1 Y87.412 E0.00439
G1 X78.234 Y87.317 E0.0041
G1 X78.397 Y87.217 E0.00477
G1 X78.587 Y87.122 E0.0053
G1 X78.76 Y87.052 E0.00466
G1 X78.91 Y87.002 E0.00394
G1 X79.082 Y86.96 E0.00442
G1 X79.231 Y86.933 E0.00378
G1 X79.5 Y86.91 E0.00673
G1 X81.186 Y86.91 E0.04206
G1 X81.334 Y86.929 E0.00372
G1 X81.44 Y86.959 E0.00275
G1 X81.534 Y87 E0.00256
G1 X81.617 Y87.049 E0.0024
G1 X81.698 Y87.109 E0.00251
G1 X81.76 Y87.168 E0.00213
G1 X81.833 Y87.258 E0.00289
G1 X81.886 Y87.342 E0.00248
G1 X81.956 Y87.512 E0.00459
G1 X81.982 Y87.632 E0.00306
G1 X81.992 Y87.755 E0.00308
G1 X81.99 Y88.93 E0.02931
G1 X81.973 Y89.057 E0.0032
G1 X81.945 Y89.159 E0.00264
G1 X81.892 Y89.28 E0.0033
G1 X81.837 Y89.37 E0.00263
G1 X81.763 Y89.461 E0.00293
G1 X81.706 Y89.516 E0.00198
G1 X81.628 Y89.576 E0.00245
G1 X81.533 Y89.633 E0.00276
G1 X81.439 Y89.673 E0.00255
G1 X81.31 Y89.71 E0.00335
G1 X78.671 Y90.174 E0.06684
G1 X78.351 Y90.269 E0.00833
G1 X78.175 Y90.352 E0.00485
G1 X78.02 Y90.445 E0.00451
G1 X77.865 Y90.562 E0.00484
G1 X77.668 Y90.755 E0.00688
G1 X77.537 Y90.933 E0.00551
G1 X77.452 Y91.083 E0.0043
G1 X77.395 Y91.185 E0.00262
G1 X77.307 Y91.43 E0.00429
G0 F1950 X77.596 Y91.513
G1 F1350 X77.49 Y92.003 E0.01251
G1 X77.544 Y92.033 E0.00154
G1 X77.543 Y106.585 E0.363
G1 X77.59 Y106.849 E0.00669
G1 X77.65 Y107.029 E0.00473
G1 X77.763 Y107.253 E0.00626
G1 X77.917 Y107.458 E0.0064
G1 X78.103 Y107.631 E0.00634
G1 X78.309 Y107.767 E0.00616
G1 X78.534 Y107.864 E0.00611
G1 X78.68 Y107.905 E0.00378
G1 X78.849 Y107.934 E0.00428
G1 X79.136 Y107.942 E0.00716
G1 X120.944 Y107.942 E1.0429
G1 X121.189 Y107.93 E0.00612
G1 X121.368 Y107.893 E0.00456
G1 X121.61 Y107.806 E0.00641
G1 X121.833 Y107.679 E0.0064
G1 X122.021 Y107.521 E0.00613
G1 X122.186 Y107.329 E0.00632
G1 X122.306 Y107.126 E0.00588
G1 X122.367 Y106.987 E0.00379
G1 X122.419 Y106.817 E0.00443
G1 X122.449 Y106.645 E0.00436
G1 X122.457 Y106.518 E0.00317
G1 X122.456 Y91.799 E0.36717
G1 X122.429 Y91.619 E0.00454
G1 X122.396 Y91.488 E0.00337
G1 X122.331 Y91.31 E0.00473
G1 X122.203 Y91.08 E0.00657
G1 X122.046 Y90.89 E0.00615
G1 X121.944 Y90.793 E0.00351
G1 X121.831 Y90.707 E0.00354
G1 X121.684 Y90.616 E0.00431
G1 X121.433 Y90.511 E0.00679
G1 X121.29 Y90.474 E0.00368
G1 X118.631 Y90.004 E0.06736
G1 X118.487 Y89.966 E0.00372
G1 X118.354 Y89.912 E0.00358
G1 X118.207 Y89.828 E0.00422
G1 X118.114 Y89.758 E0.0029
G1 X118.019 Y89.669 E0.00325
G1 X117.926 Y89.557 E0.00363
G1 X117.844 Y89.427 E0.00383
G1 X117.779 Y89.28 E0.00401
G1 X117.736 Y89.134 E0.0038
G1 X117.712 Y88.975 E0.00401
G1 X117.71 Y87.692 E0.032
G1 X117.734 Y87.509 E0.0046
G1 X117.774 Y87.368 E0.00366
G1 X117.846 Y87.203 E0.00449
G1 X117.904 Y87.109 E0.00276
G1 X118.013 Y86.971 E0.00439
G1 X118.098 Y86.889 E0.00295
G1 X118.193 Y86.815 E0.003
G1 X118.211 Y86.805 E0.00051
G1 X118.328 Y86.733 E0.00343
G1 X118.348 Y86.725 E0.00054
G1 X118.43 Y86.688 E0.00224
G1 X118.588 Y86.639 E0.00413
G1 X118.735 Y86.617 E0.00371
G1 X118.762 Y86.612 E0.00068
G1 X120.527 Y86.61 E0.04403
G1 X120.698 Y86.622 E0.00428
G1 X120.882 Y86.649 E0.00464
G1 X121.095 Y86.694 E0.00543
G1 X121.247 Y86.737 E0.00394
G1 X121.476 Y86.821 E0.00608
G1 X121.627 Y86.89 E0.00414
G1 X121.847 Y87.012 E0.00628
G1 X122.008 Y87.119 E0.00482
G1 X122.163 Y87.239 E0.00489
G1 X122.341 Y87.401 E0.006
G1 X122.5 Y87.573 E0.00584
G1 X122.627 Y87.735 E0.00513
G1 X122.744 Y87.909 E0.00523
G1 X122.841 Y88.082 E0.00495
G1 X122.934 Y88.281 E0.00548
G1 X123.017 Y88.507 E0.00601
G1 X123.07 Y88.695 E0.00487
G1 X123.104 Y88.87 E0.00445
G1 X123.109 Y88.891 E0.00054
G1 X123.137 Y89.118 E0.00571
G1 X123.145 Y89.306 E0.00469
G1 X123.143 Y112.307 E0.57376
G1 X123.123 Y112.474 E0.0042
G1 X123.086 Y112.611 E0.00354
G1 X123.033 Y112.748 E0.00366
G1 X122.984 Y112.839 E0.00258
G1 X122.89 Y112.97 E0.00402
G1 X122.828 Y113.041 E0.00235
G1 X122.697 Y113.158 E0.00438
G1 X122.643 Y113.197 E0.00166
G1 X122.503 Y113.278 E0.00403
G1 X122.379 Y113.328 E0.00334
G1 X122.219 Y113.371 E0.00413
G1 X122.123 Y113.385 E0.00242
G1 X122.011 Y113.391 E0.0028
G1 X77.965 Y113.391 E1.09873
G1 X77.792 Y113.373 E0.00434
G1 X77.619 Y113.328 E0.00446
G1 X77.508 Y113.281 E0.00301
G1 X77.486 Y113.272 E0.00059
G1 X77.369 Y113.204 E0.00338
G1 X77.236 Y113.103 E0.00417
G1 X77.172 Y113.042 E0.00221
G1 X77.057 Y112.899 E0.00458
G1 X76.985 Y112.783 E0.00341
G1 X76.949 Y112.704 E0.00217
G1 X76.94 Y112.686 E0.0005
G1 X76.894 Y112.547 E0.00365
G1 X76.862 Y112.385 E0.00412
G1 X76.856 Y112.314 E0.00178
G1 X76.858 Y89.202 E0.57653
G1 X76.873 Y89.009 E0.00483
G1 X76.902 Y88.831 E0.0045
G1 X76.955 Y88.603 E0.00584
G1 X77.019 Y88.405 E0.00519
G1 X77.118 Y88.165 E0.00648
G1 X77.204 Y87.998 E0.00469
G1 X77.318 Y87.812 E0.00544
G1 X77.439 Y87.649 E0.00506
G1 X77.451 Y87.632 E0.00052
G1 X77.561 Y87.503 E0.00423
G1 X77.761 Y87.305 E0.00702
G1 X77.92 Y87.172 E0.00517
G1 X78.077 Y87.061 E0.0048
G1 X78.253 Y86.953 E0.00515
G1 X78.458 Y86.851 E0.00571
G1 X78.654 Y86.771 E0.00528
G1 X78.823 Y86.715 E0.00444
G1 X79.017 Y86.667 E0.00499
G1 X79.18 Y86.639 E0.00413
G1 X79.198 Y86.635 E0.00046
G1 X79.486 Y86.61 E0.00721
G1 X81.209 Y86.61 E0.04298
G1 X81.395 Y86.634 E0.00468
G1 X81.539 Y86.675 E0.00373
G1 X81.672 Y86.733 E0.00362
G1 X81.788 Y86.802 E0.00337
G1 X81.89 Y86.878 E0.00317
G1 X81.981 Y86.964 E0.00312
G1 X82.078 Y87.084 E0.00385
G1 X82.15 Y87.198 E0.00336
G1 X82.191 Y87.282 E0.00233
G1 X82.245 Y87.428 E0.00388
G1 X82.28 Y87.59 E0.00413
G1 X82.29 Y87.732 E0.00355
G1 X82.292 Y87.745 E0.00033
G1 X82.29 Y88.951 E0.03008
G1 X82.267 Y89.118 E0.00421
G1 X82.227 Y89.263 E0.00375
G1 X82.157 Y89.423 E0.00436
G1 X82.084 Y89.542 E0.00348
G1 X81.981 Y89.669 E0.00408
G1 X81.902 Y89.744 E0.00272
G1 X81.802 Y89.822 E0.00316
G1 X81.672 Y89.899 E0.00377
G1 X81.536 Y89.958 E0.0037
G1 X81.382 Y90.001 E0.00399
G1 X81.363 Y90.004 E0.00048
G1 X78.74 Y90.467 E0.06644
G1 X78.458 Y90.55 E0.00733
G1 X78.317 Y90.617 E0.00389
G1 X78.188 Y90.694 E0.00375
G1 X78.061 Y90.79 E0.00397
G1 X77.895 Y90.953 E0.0058
G1 X77.789 Y91.096 E0.00444
G1 X77.669 Y91.31 E0.00612
G1 X77.596 Y91.513 E0.00538
G0 F1950 X77.158 Y92.161
G1 F1350 X77.244 Y92.209 E0.00246
G1 X77.243 Y106.611 E0.35926
G1 X77.298 Y106.923 E0.0079
G1 X77.372 Y107.145 E0.00584
G1 X77.45 Y107.3 E0.00433
G1 X77.507 Y107.412 E0.00313
G1 X77.693 Y107.66 E0.00773
G1 X77.917 Y107.868 E0.00763
G1 X78.166 Y108.032 E0.00744
G1 X78.434 Y108.147 E0.00727
G1 X78.614 Y108.198 E0.00467
G1 X78.819 Y108.233 E0.00519
G1 X79.132 Y108.242 E0.00781
G1 X120.951 Y108.242 E1.04318
G1 X121.227 Y108.229 E0.00689
G1 X121.45 Y108.182 E0.00568
G1 X121.736 Y108.08 E0.00757
G1 X122.005 Y107.926 E0.00773
G1 X122.233 Y107.735 E0.00742
G1 X122.431 Y107.504 E0.00759
G1 X122.548 Y107.307 E0.00572
G1 X122.573 Y107.263 E0.00126
G1 X122.649 Y107.092 E0.00467
G1 X122.711 Y106.887 E0.00534
G1 X122.747 Y106.68 E0.00524
G1 X122.747 Y106.665 E0.00037
G1 X122.757 Y106.527 E0.00345
G1 X122.756 Y91.777 E0.36794
G1 X122.724 Y91.56 E0.00547
G1 X122.683 Y91.4 E0.00412
G1 X122.605 Y91.185 E0.00571
G1 X122.55 Y91.087 E0.0028
G1 X122.452 Y90.91 E0.00505
G1 X122.266 Y90.685 E0.00728
G1 X122.139 Y90.564 E0.00438
G1 X122.001 Y90.46 E0.00431
G1 X121.99 Y90.454 E0.00031
G1 X121.822 Y90.348 E0.00496
G1 X121.529 Y90.226 E0.00792
G1 X121.354 Y90.181 E0.00451
G1 X118.701 Y89.712 E0.06721
G1 X118.582 Y89.681 E0.00307
G1 X118.483 Y89.64 E0.00267
G1 X118.374 Y89.579 E0.00312
G1 X118.24 Y89.465 E0.00439
G1 X118.169 Y89.379 E0.00278
G1 X118.107 Y89.282 E0.00287
G1 X118.063 Y89.182 E0.00273
G1 X118.03 Y89.07 E0.00291
G1 X118.012 Y88.95 E0.00303
G1 X118.01 Y87.708 E0.03098
G1 X118.028 Y87.573 E0.0034
G1 X118.058 Y87.467 E0.00275
G1 X118.113 Y87.342 E0.00341
G1 X118.151 Y87.279 E0.00184
G1 X118.235 Y87.174 E0.00335
G1 X118.294 Y87.117 E0.00205
G1 X118.367 Y87.06 E0.00231
G1 X118.469 Y86.998 E0.00298
G1 X118.528 Y86.972 E0.00161
G1 X118.662 Y86.931 E0.0035
G1 X118.782 Y86.912 E0.00303
G1 X120.52 Y86.91 E0.04335
G1 X120.659 Y86.92 E0.00348
G1 X120.826 Y86.944 E0.00421
G1 X121.024 Y86.986 E0.00505
G1 X121.157 Y87.024 E0.00345
G1 X121.361 Y87.099 E0.00542
G1 X121.502 Y87.163 E0.00386
G1 X121.684 Y87.264 E0.00519
G1 X121.83 Y87.361 E0.00437
G1 X121.969 Y87.468 E0.00438
G1 X122.128 Y87.613 E0.00537
G1 X122.272 Y87.768 E0.00528
G1 X122.385 Y87.912 E0.00457
G1 X122.482 Y88.056 E0.00433
G1 X122.575 Y88.222 E0.00475
G1 X122.656 Y88.396 E0.00479
G1 X122.732 Y88.601 E0.00545
G1 X122.779 Y88.768 E0.00433
G1 X122.811 Y88.928 E0.00407
G1 X122.838 Y89.143 E0.00541
G1 X122.845 Y89.319 E0.00439
G1 X122.845 Y91.072 E0.04373
G1 X122.845 Y91.185 E0.0024
G1 X122.845 Y91.4 E0.00358
G1 X122.845 Y91.56 E0.00188
G1 X122.845 Y91.777 E0.00189
G1 X122.845 Y106.527 E0.10891
G1 X122.845 Y106.68 E0.00132
G1 X122.845 Y106.887 E0.002
G1 X122.845 Y107.092 E0.0028
G1 X122.844 Y107.263 E0.00359
G1 X122.844 Y107.314 E0.00121
G1 X122.843 Y112.288 E0.12408
G1 X122.828 Y112.416 E0.00321
G1 X122.8 Y112.519 E0.00266
G1 X122.759 Y112.625 E0.00284
G1 X122.655 Y112.783 E0.00472
G1 X122.619 Y112.825 E0.00138
G1 X122.481 Y112.944 E0.00455
G1 X122.368 Y113.009 E0.00325
G1 X122.288 Y113.041 E0.00215
G1 X122.156 Y113.077 E0.00341
G1 X121.995 Y113.091 E0.00403
G1 X77.977 Y113.091 E1.09803
G1 X77.847 Y113.077 E0.00326
G1 X77.713 Y113.043 E0.00345
G1 X77.623 Y113.005 E0.00244
G1 X77.536 Y112.954 E0.00252
G1 X77.394 Y112.839 E0.00456
G1 X77.301 Y112.724 E0.00369
G1 X77.22 Y112.578 E0.00416
G1 X77.184 Y112.467 E0.00291
G1 X77.156 Y112.301 E0.0042
G1 X77.156 Y107.319 E0.12428
G1 X77.156 Y107.145 E0.00376
G1 X77.156 Y106.923 E0.00329
G1 X77.156 Y106.611 E0.00297
G1 X77.157 Y92.209 E0.10455
G1 X77.158 Y92.161
G0 F1950 X77.774 Y91.874
;TYPE:WALL-OUTER
G1 F1350 X77.794 Y91.885 E0.00057
G1 X77.793 Y106.563 E0.36614
G1 X77.833 Y106.788 E0.0057
G1 X77.881 Y106.933 E0.00381
G1 X77.976 Y107.12 E0.00523
G1 X78.104 Y107.29 E0.00531
G1 X78.258 Y107.434 E0.00526
G1 X78.428 Y107.546 E0.00508
G1 X78.618 Y107.628 E0.00516
G1 X78.735 Y107.661 E0.00303
G1 X78.874 Y107.685 E0.00352
G1 X79.139 Y107.692 E0.00661
G1 X120.938 Y107.692 E1.04268
G1 X121.158 Y107.681 E0.00549
G1 X121.3 Y107.652 E0.00362
G1 X121.505 Y107.578 E0.00544
G1 X121.69 Y107.473 E0.00531
G1 X121.845 Y107.343 E0.00505
G1 X121.982 Y107.183 E0.00525
G1 X122.083 Y107.012 E0.00495
G1 X122.132 Y106.9 E0.00305
G1 X122.175 Y106.759 E0.00368
G1 X122.2 Y106.615 E0.00365
G1 X122.207 Y106.51 E0.00263
G1 X122.206 Y91.817 E0.36652
G1 X122.184 Y91.668 E0.00376
G1 X122.157 Y91.562 E0.00273
G1 X122.103 Y91.414 E0.00393
G1 X121.996 Y91.222 E0.00548
G1 X121.863 Y91.061 E0.00521
G1 X121.782 Y90.984 E0.00279
G1 X121.689 Y90.913 E0.00292
G1 X121.569 Y90.839 E0.00352
G1 X121.353 Y90.748 E0.00585
G1 X121.237 Y90.718 E0.00299
G1 X118.57 Y90.247 E0.06756
G1 X118.408 Y90.204 E0.00418
G1 X118.247 Y90.139 E0.00433
G1 X118.069 Y90.037 E0.00512
G1 X117.948 Y89.945 E0.00379
G1 X117.84 Y89.844 E0.00369
G1 X117.722 Y89.702 E0.00461
G1 X117.625 Y89.548 E0.00454
G1 X117.543 Y89.365 E0.005
